!!!!SEGMENT: pl-cz--iii-273--006_gotschalk-filip--vesperae-in-d-magnificat.krn
!!!cenid: 18xx:152
!!!COM: Gotschalk, Filip
!!!COM-rismid: pe30020320
!!!CDT: 1760-1809
!!!CNT:
!!!OPR: Vesperae in D
!!!OTL: Magnificat
!!!OMV: 006
!!!PDT:
!!!AGN: Sacred; Vespers
!!!SMS-siglum: PL-CZ
!!!SMS-shelfmark: III-273
!!!SMS-shelfwork: 001-006 M
!!!NIFC-rismid:
!!!URL-scan: http://repozytorium.nifc.pl/skany/pl-cz-nut--iii-273
!!!ONB-nifc:
**kern	**fba	**dynam	**kern	**dynam	**kern	**dynam	**kern	**text	**kern	**text	**text	**kern	**text	**text	**kern	**text	**text	**kern	**kern
*part9	*part9	*part9	*part8	*part8	*part7	*part7	*part6	*part6	*part5	*part5	*part5	*part4	*part4	*part4	*part3	*part3	*part3	*part2	*part1
*	*	*	*group3	*	*group3	*	*group2	*	*group2	*	*	*group2	*	*	*group2	*	*	*group1	*group1
*staff9	*	*	*staff8	*	*staff7	*	*staff6	*staff6	*staff5	*staff5	*staff5	*staff4	*staff4	*staff4	*staff3	*staff3	*staff3	*staff2	*staff1
*Iorgan	*	*	*Ivioln	*	*Ivioln	*	*Iempty	*	*Itenor	*	*	*Ialto	*	*	*Ivox	*	*	*Iempty	*Iempty
*I"Organo.	*	*	*I"Violino Secondo.	*	*I"Violino Primo	*	*I"Basſo.	*	*I"Tenore.	*	*	*I"Alto.	*	*	*I"Canto.	*	*	*I"Clarino Secondo in D.	*I"Clarino Primo in D.
*I'Org.	*	*	*I'Vln. II	*	*I'Vln. I	*	*I'B	*	*I'T	*	*	*I'A	*	*	*I'C	*	*	*I'Cl. II	*I'Cl. I
*clefF4	*	*	*clefG2	*	*clefG2	*	*clefF4	*	*clefC4	*	*	*clefC3	*	*	*clefC1	*	*	*clefG2	*clefG2
*	*	*	*	*	*	*	*	*	*	*	*	*	*	*	*	*	*	*ITrd-1c-2	*ITrd-1c-2
*k[f#c#]	*	*	*k[f#c#]	*	*k[f#c#]	*	*k[f#c#]	*	*k[f#c#]	*	*	*k[f#c#]	*	*	*k[f#c#]	*	*	*k[f#c#]	*k[f#c#]
*D:	*	*	*D:	*	*D:	*	*D:	*	*D:	*	*	*D:	*	*	*D:	*	*	*	*
*M4/4	*	*	*M4/4	*	*M4/4	*	*M4/4	*	*M4/4	*	*	*M4/4	*	*	*M4/4	*	*	*M4/4	*M4/4
*met(c)	*	*	*met(c)	*	*met(c)	*	*met(c)	*	*met(c)	*	*	*met(c)	*	*	*met(c)	*	*	*met(c)	*met(c)
*>[A,B,B,C,D,D,E]	*	*	*>[A,B,B,C,D,D,E]	*	*>[A,B,B,C,D,D,E]	*	*>[A,B,B,C,D,D,E]	*	*>[A,B,B,C,D,D,E]	*	*	*>[A,B,B,C,D,D,E]	*	*	*>[A,B,B,C,D,D,E]	*	*	*>[A,B,B,C,D,D,E]	*>[A,B,B,C,D,D,E]
=1	=1	=1	=1	=1	=1	=1	=1	=1	=1	=1	=1	=1	=1	=1	=1	=1	=1	=1	=1
*>A	*	*	*>A	*	*>A	*	*>A	*	*>A	*	*	*>A	*	*	*>A	*	*	*>A	*>A
*8\right	*	*	*	*	*8\right	*	*4\right	*	*	*	*	*4\right	*	*	*	*	*	*	*
!LO:TX:b:i:t=Tutti	!	!	!	!	!	!	!	!	!	!	!	!	!	!	!	!	!	!	!
!LO:TX:a:i:t=Moderato	!	!	!LO:TX:a:Bi:t=Moderato Alegro	!	!LO:TX:a:Bi:t=Moderato. Allegro.	!	!LO:TX:a:Bi:t=Moderato.	!	!LO:TX:a:i:t=Moderato	!	!	!	!	!	!LO:TX:a:i:t=Moderato.	!	!	!LO:TX:a:i:t=Moderato	!LO:TX:a:i:t=Moderato in D.
!	!	!	!LO:TX:a:t=P:problem:caudy niekonsekwentne, raz z prawej, raz z lewej	!	!	!	!	!	!LO:TX:a:t=P:problem:kolejność znaków c# F#	!	!	!LO:TX:b:t=P:problem:"M"przed kluczem	!	!	!LO:TX:a:t=P:problem:kolejność znaków dd# f#	!	!	!	!
8D\L	.	.	8f#L 8A/	.	8dd`\L	.	4d\	Ma-	4f#\	Ma-	.	4a\	[M]a-	.	8.dd\L	Ma-	.	8f#/	8dd\
*	*	*	*	*	*32\right	*	*	*	*	*	*	*	*	*	*	*	*	*	*
8D\J	.	.	(32f#/LL	.	(32dd\LL	.	.	.	.	.	.	.	.	.	.	.	.	8r	8r
.	.	.	32e/	.	32cc#\	.	.	.	.	.	.	.	.	.	.	.	.	.	.
.	.	.	32f#/	.	32dd\	.	.	.	.	.	.	.	.	.	16ee\Jk	.	.	.	.
.	.	.	32g/JJJ	.	32ee\JJJ	.	.	.	.	.	.	.	.	.	.	.	.	.	.
*16\right	*	*	*	*	*16\right	*	*16\right	*	*	*	*	*16\right	*	*	*	*	*	*	*
!	!	!	!	!	!LO:TX:a:t=P:problem:mixed beam	!	!	!	!	!	!	!	!	!	!	!	!	!	!
16D\LL	.	.	16f#/LL)	.	16dd\LL)	.	16d\	-gni-	16f#\	-gni-	.	16a\	-gni-	.	16dd\	-gni-	.	8f#/	8dd\
16D\	.	.	16d/	.	16d/	.	16d\	-fi-	16f#\	-fi-	.	16a\	-fi-	.	16dd\	-fi-	.	.	.
*	*	*	*	*	*	*	*8\right	*	*	*	*	*8\right	*	*	*	*	*	*	*
16F#\	.	.	16d/	.	16f#/	.	8d\	-cat	8f#\	-cat	.	8a\	-cat	.	8dd\	-cat	.	8r	8r
16A\JJ	.	.	16f#/JJ	.	16a/JJ	.	.	.	.	.	.	.	.	.	.	.	.	.	.
!LO:TX:a:t=P:problem:mixed beam	!	!	!	!	!LO:LB:g=original	!	!	!	!	!	!	!	!	!	!	!	!	!	!
8d\L	.	.	8aL 8f#/	.	8dd\L	.	8d\	a-	8d\	a-	.	8a\	a-	.	8dd\	a-	.	8r	8r
8D/J	.	.	(32a/LL	.	(32ff#\LL	.	16d\	-ni-	16A/	-ni-	.	16a\	-ni-	.	16ff#\	-ni-	.	8a/	16ff#\LL
.	.	.	32b/	.	32gg\	.	.	.	.	.	.	.	.	.	.	.	.	.	.
.	.	.	32a/	.	32ff#\	.	16A\	-ma	16G/	-ma	.	16a\	-ma	.	16ee\	-ma	.	.	16ee\JJ
.	.	.	32g/JJJ)	.	32ee\JJJ	.	.	.	.	.	.	.	.	.	.	.	.	.	.
!	!	!	!	!	!	!	!	!	!LO:LB:g=original	!	!	!	!	!	!	!	!	!	!
16d\LL	.	.	(16g/LL	.	(16ee\LL)	.	8d\	me-	16G/LL	me-	.	8a\	me-	.	16ee\LL	me-	.	16a/LL	16ee\LL
16d\	.	.	16f#/J)	.	16dd\J)	.	.	.	16F#/JJ	.	.	.	.	.	16dd\JJ	.	.	16f#/J	16dd\J
16A\	.	.	8f#`/J	.	8dd`\J	.	8d\	-a	8F#/	-a	.	8a\	-a	.	8dd\	-a	.	8f#/J	8dd\J
16F#\JJ	.	.	.	.	.	.	.	.	.	.	.	.	.	.	.	.	.	.	.
=2	=2	=2	=2	=2	=2	=2	=2	=2	=2	=2	=2	=2	=2	=2	=2	=2	=2	=2	=2
16D\LL	.	.	8dd`\L	.	8ff#L 8a 8d\	.	8d\	a-	8d\	a-	.	8f#\	a-	.	8dd\	a-	.	8dd\	8ff#\
16d\	.	.	.	.	.	.	.	.	.	.	.	.	.	.	.	.	.	.	.
16D\	.	.	(32dd\LL	.	(32ff#\LL	.	16d\	-ni-	16d\	-ni-	.	16f#\	-ni-	.	16dd\	-ni-	.	8r	8r
.	.	.	32cc#\	.	32ee\	.	.	.	.	.	.	.	.	.	.	.	.	.	.
16d\JJ	.	.	32dd\	.	32ff#\	.	16d\	-ma	16d\	-ma	.	16f#\	-ma	.	16dd\	-ma	.	.	.
.	.	.	32ee\JJJ)	.	32gg\JJJ)	.	.	.	.	.	.	.	.	.	.	.	.	.	.
!	!	!	!LO:TX:a:t=P:problem:mixed beam	!	!LO:TX:a:t=P:problem:mixed beam	!	!	!	!	!	!	!	!	!	!	!	!	!	!
*rep	*	*	*	*	*	*	*	*	*	*	*	*	*	*	*	*	*	*	*
16D\LL	.	.	16dd\LL	.	16ff#\LL	.	8d\	me-	8d\	me-	.	8f#\	me-	.	8dd\	me-	.	8dd\	8ff#\
16d\	.	.	16d/	.	16f#/	.	.	.	.	.	.	.	.	.	.	.	.	.	.
16D\	.	.	16f#/	.	16a/	.	8d\	-a	8d\	-a	.	8f#\	-a	.	8dd\	-a	.	8r	8r
16d\JJ	.	.	16a/JJ	.	16dd/JJ	.	.	.	.	.	.	.	.	.	.	.	.	.	.
*Xrep	*	*	*	*	*	*	*	*	*	*	*	*	*	*	*	*	*	*	*
!	!	!	!LO:LB:g=original	!	!	!	!LO:LB:g=original	!	!	!	!	!LO:LB:g=original	!	!	!LO:LB:g=original	!	!	!	!
*rep	*	*	*	*	*	*	*	*	*	*	*	*	*	*	*	*	*	*	*
16D\LL	.	.	(8dd\L	.	8ff#\L	.	8d\	me-	8A/	me-	.	8f#\	me-	.	8dd\	me-	.	8dd\L	8ff#\L
16d\	.	.	.	.	.	.	.	.	.	.	.	.	.	.	.	.	.	.	.
*	*	*	*	*	*	*	*	*	*	*	*	*32\right	*	*	*	*	*	*	*
16D\	.	.	32ff#\LL	.	(32aa\LL	.	8A\	-a	8A/	-a	.	32a\LLL	.	.	(32dd\LLL	-a	.	16ff#\L	16aa\L
.	.	.	32gg\	.	32bb\	.	.	.	.	.	.	32b\JJJ	.	.	32ff#\JJJ	.	.	.	.
16d\JJ	.	.	32ff#\	.	32aa\	.	.	.	.	.	.	32a\LLL	-a	.	16ee\)	.	.	16ee\JJ	16gg\JJ
*Xrep	*	*	*	*	*	*	*	*	*	*	*	*	*	*	*	*	*	*	*
.	.	.	32ee\JJJ)	.	32gg\JJJ)	.	.	.	.	.	.	32g\JJJ	.	.	.	.	.	.	.
!	!	!	!	!	!	!	!	!	!	!	!	!	!	!	!	!	!	!LO:LB:g=original	!
16D\LL	.	.	16ee\LL	.	(16gg\LL	.	16d\	Do-	16A/	Do-	.	16g\	Do-	.	16ee\	Do-	.	16ee\LL	16gg\LL
16d\	.	.	16dd\J	.	16ff#\J)	.	16d\	-mi-	16A/	-mi-	.	16f#\	-mi-	.	16dd\	-mi-	.	16dd\J	16ff#\J
16A\	.	.	8dd\J	.	8ff#\J	.	8d\	-num	8A/	-num	.	8f#\	-num,	.	8dd\	-num	.	8dd\J	8ff#\J
16F#\JJ	.	.	.	.	.	.	.	.	.	.	.	.	.	.	.	.	.	.	.
!LO:LB:g=original	!	!	!	!	!	!	!	!	!LO:LB:g=original	!	!	!	!	!	!	!	!	!	!
=3	=3	=3	=3	=3	=3	=3	=3	=3	=3	=3	=3	=3	=3	=3	=3	=3	=3	=3	=3
8D\L	.	.	8ff#L 8a 8d\	.	16ff#\LL	.	8d\	et	8f#\	Et	.	8f#\	et	.	8dd\	et	.	8r	8r
.	.	.	.	.	16ddd\J	.	.	.	.	.	.	.	.	.	.	.	.	.	.
*32\right	*	*	*	*	*	*	*	*	*	*	*	*	*	*	*	*	*	*	*
32d\LL	.	.	(32ff#\LL	.	8aa\J	.	16d\	ex-	16f#\	ex-	.	16f#\	ex-	.	16dd\	ex-	.	16dd\LL	16ff#\LL
32c#\	.	.	32ee\	.	.	.	.	.	.	.	.	.	.	.	.	.	.	.	.
32d\	.	.	32ff#\	.	.	.	16d\	-ul-	16f#\	-ul-	.	16f#\	-ul-	.	16dd\	-ul-	.	16dd\JJ	16ff#\JJ
32e\JJJ	.	.	32gg\JJJ)	.	.	.	.	.	.	.	.	.	.	.	.	.	.	.	.
16d\LL	.	.	16ff#\LL	.	16aa\KL	.	8d\	-ta-	16f#\LL	-ta-	.	8f#\	-ta-	.	8dd\	-ta-	.	8dd\L	8ff#\L
16e\	.	.	16gg\	.	8aa\	.	.	.	16g\JJ	.	.	.	.	.	.	.	.	.	.
16f#\	.	.	16aa\	.	.	.	16f#\LL	-vit	16a\LL	-vit	.	8f#\	-vit	.	8dd\	-vit	.	8dd\J	8ff#\J
16d\JJ	.	.	16ff#\JJ	.	16aa\Jk	.	16d\JJ	.	16f#\JJ	.	.	.	.	.	.	.	.	.	.
!	!	!	!	!	!LO:LB:g=original	!	!	!	!	!	!	!	!	!	!	!	!	!	!
16e\LL	4_ 3_	.	16gg\LL	.	16aa\LL	.	16e\LL	ſpi-	16g\LL	Spi-	.	16g\	spi-	.	8ee\	Spi-	.	8r	8r
16d\	.	.	16ff#\	.	16eee\J	.	16d\JJ	.	16f#\JJ	-ri-	.	16g\	-ri-	.	.	.	.	.	.
16c#\	.	.	16ee\	.	8aa\J	.	16c#\	-ri-	16e\	-tus	.	8g\	-tus.	.	16ee\	-ri-	.	16ee\LL	16gg\LL
16B\JJ	X X	.	16dd\JJ	.	.	.	16B\	-tus	16d\	.	.	.	.	.	16ee\	-tus	.	16ee\JJ	16gg\JJ
16A\LL	.	.	16cc#\LL	.	16aa\KL	.	8A\	me-	8c#\	me-	.	8g\	me-	.	8ee\	me-	.	8ee\L	8gg\L
16e\	.	.	16gg\	.	8aa\	.	.	.	.	.	.	.	.	.	.	.	.	.	.
16c#\	.	.	16ee\	.	.	.	8A\	-us	8c#\	-us	.	8g\	-us	.	8ee\	-us	.	8ee\J	8gg\J
16A\JJ	.	.	16cc#\JJ	.	16aa\Jk	.	.	.	.	.	.	.	.	.	.	.	.	.	.
!	!	!	!	!	!	!	!	!	!	!	!	!LO:LB:g=original	!	!	!LO:LB:g=original	!	!	!	!
=4	=4	=4	=4	=4	=4	=4	=4	=4	=4	=4	=4	=4	=4	=4	=4	=4	=4	=4	=4
!LO:TX:a:t=P:problem:mixed beam	!	!	!	!	!	!	!	!	!	!	!	!	!	!	!	!	!	!	!
8d\L	.	.	8ff# 8a 8d\	.	16aa\LL	.	8d\	in	8f#\	in	.	8f#\	in	.	8dd\	in	.	8r	8r
.	.	.	.	.	16ddd\J	.	.	.	.	.	.	.	.	.	.	.	.	.	.
32D/LL	.	.	(32f#/LLL	.	8aa\J	.	16d\	de-	16f#\	De-	.	16f#\	De-	.	16dd\	De-	.	16dd\LL	16ff#\LL
32C#/	.	.	32e/	.	.	.	.	.	.	.	.	.	.	.	.	.	.	.	.
32D/	.	.	32f#/	.	.	.	16d\	-o	16f#\	-o	.	16f#\	-o	.	16dd\	-o	.	16dd\JJ	16ff#\JJ
32E/JJJ	.	.	32g/JJJ)	.	.	.	.	.	.	.	.	.	.	.	.	.	.	.	.
!	!	!	!	!	!	!	!	!	!LO:LB:g=original	!	!	!	!	!	!	!	!	!	!
16D\LL	.	.	16f#/LL	.	16aa\KL	.	16d\LL	ſa-	16f#\LL	sa-	.	8f#\	Sa-	.	8dd\	sa-	.	8dd\L	8ff#\L
16E\	.	.	16g/	.	8aa\	.	16e\JJ	.	16g\JJ	.	.	.	.	.	.	.	.	.	.
16F#\	.	.	16a/	.	.	.	16f#\LL	-lu-	16a\LL	-lu-	.	8f#\	-lu-	.	8dd\	-lu-	.	8dd\J	8ff#\J
16D\JJ	.	.	16f#/JJ	.	16aa\Jk	.	16d\JJ	.	16f#\JJ	.	.	.	.	.	.	.	.	.	.
!	!	!	!	!	!	!	!LO:LB:g=original	!	!	!	!	!	!	!	!	!	!	!	!LO:LB:g=original
16E\LL	4_ 3_	.	16g/LL	.	16aa\LL	.	16e\LL	-ta-	16g\LL	-ta-	.	8g\	-ta-	.	8ee\	-ta-	.	8r	8r
16D\JJ	.	.	16f#/	.	16eee\J	.	16d\JJ	.	16f#\JJ	.	.	.	.	.	.	.	.	.	.
16C#/LL	.	.	16e/	.	8aa\J	.	16c#\LL	-ri-	16e\LL	-ri-	.	8g\	-ri-	.	8ee\	-ri-	.	16ee\LL	16gg\LL
!	!	!	!LO:TX:a:t=P:problem:nuta zamazana	!	!	!	!	!	!	!	!	!	!	!	!	!	!	!	!
16BB/JJ	X X	.	16c#/JJ	.	.	.	16B\JJ	.	16d\JJ	.	.	.	.	.	.	.	.	16ee\JJ	16gg\JJ
16AA/LL	.	.	16c#/LL	.	16aa\KL	.	8A\	-me-	8c#\	-me-	.	8g\	-me-	.	8ee\	-me-	.	8ee\L	8gg\L
16E/	.	.	16g/	.	8aa\	.	.	.	.	.	.	.	.	.	.	.	.	.	.
16C#/	.	.	16e/	.	.	.	8A\	-o.	8c#\	-o	.	8g\	-o.	.	8ee\	-o	.	8ee\J	8gg\J
16AA/JJ	.	.	16c#/JJ	.	16aa\Jk	.	.	.	.	.	.	.	.	.	.	.	.	.	.
!	!	!	!LO:LB:g=original	!	!	!	!	!	!	!	!	!	!	!	!	!	!	!	!
=5	=5	=5	=5	=5	=5	=5	=5	=5	=5	=5	=5	=5	=5	=5	=5	=5	=5	=5	=5
!	!	!LO:DY:b:t=piano	!	!	!	!LO:DY:b:t=pia	!LO:TX:a:t=4	!	!LO:TX:a:t=4	!	!	!LO:TX:a:t=4	!	!	!LO:TX:a:t=4	!	!	!	!
8D\L	.	p	(32ff#\LLL	.	(32aa\LLL	p	00r	.	00r	.	.	00r	.	.	00r	.	.	8ff#\	8aa\
.	.	.	32gg\	.	32bb\	.	.	.	.	.	.	.	.	.	.	.	.	.	.
.	.	.	32ff#\)	.	32aa\	.	.	.	.	.	.	.	.	.	.	.	.	.	.
.	.	.	32ee\JJJ	.	32gg\JJ	.	.	.	.	.	.	.	.	.	.	.	.	.	.
16r	.	.	16dd\LL	.	8ff#\J)	.	.	.	.	.	.	.	.	.	.	.	.	8r	8r
16d\Jk	.	.	16a\JJ	.	.	.	.	.	.	.	.	.	.	.	.	.	.	.	.
8d\L	.	.	(32a/LLL	.	(32ff#\LLL	.	.	.	.	.	.	.	.	.	.	.	.	8dd\	8ff#\
.	.	.	32b/	.	32gg\	.	.	.	.	.	.	.	.	.	.	.	.	.	.
.	.	.	32a/	.	32ff#\	.	.	.	.	.	.	.	.	.	.	.	.	.	.
.	.	.	32g/JJ)	.	32ee\JJ	.	.	.	.	.	.	.	.	.	.	.	.	.	.
16r	.	.	8f#/J	.	8dd\J)	.	.	.	.	.	.	.	.	.	.	.	.	8r	8r
16D\Jk	.	.	.	.	.	.	.	.	.	.	.	.	.	.	.	.	.	.	.
8d\L	.	.	16f#/LL	.	16r	.	.	.	.	.	.	.	.	.	.	.	.	8f#/	8dd\
.	.	.	16a/	.	32dd\LLL	.	.	.	.	.	.	.	.	.	.	.	.	.	.
.	.	.	.	.	32ee\JJJ	.	.	.	.	.	.	.	.	.	.	.	.	.	.
!	!	!	!	!	!LO:LB:g=original	!	!	!	!	!	!	!	!	!	!	!	!	!	!
8D\	.	.	16dd/	.	16ff#\LL	.	.	.	.	.	.	.	.	.	.	.	.	8r	8r
.	.	.	16ee/JJ	.	16gg\JJ	.	.	.	.	.	.	.	.	.	.	.	.	.	.
8D\	.	.	16ff#\LL	.	16aa\LL	.	.	.	.	.	.	.	.	.	.	.	.	4r	4r
.	.	.	16dd\	.	16ff#\	.	.	.	.	.	.	.	.	.	.	.	.	.	.
8D\J	.	.	16gg\	.	16bb\	.	.	.	.	.	.	.	.	.	.	.	.	.	.
.	.	.	16ff#\JJ	.	16aa\JJ	.	.	.	.	.	.	.	.	.	.	.	.	.	.
!LO:LB:g=original	!	!	!	!	!	!	!	!	!	!	!	!	!	!	!	!	!	!	!
=6	=6	=6	=6	=6	=6	=6	=6	=6	=6	=6	=6	=6	=6	=6	=6	=6	=6	=6	=6
!LO:TX:a:t=P:problem:mixed beam	!	!	!	!	!	!	!	!	!	!	!	!	!	!	!	!	!	!	!
8AA/L	.	.	(32ee\LLL	.	(32gg\LLL	.	.	.	.	.	.	.	.	.	.	.	.	8ee\	8gg\
.	.	.	32ff#\	.	32aa\	.	.	.	.	.	.	.	.	.	.	.	.	.	.
.	.	.	32ee\	.	32gg\	.	.	.	.	.	.	.	.	.	.	.	.	.	.
.	.	.	32dd\JJ)	.	32ff#\JJ)	.	.	.	.	.	.	.	.	.	.	.	.	.	.
16r	.	.	8cc#\J	.	8ee\J	.	.	.	.	.	.	.	.	.	.	.	.	8r	8r
16A\Jk	.	.	.	.	.	.	.	.	.	.	.	.	.	.	.	.	.	.	.
!LO:TX:a:t=P:problem:mixed beam	!	!	!	!	!	!	!	!	!	!	!	!	!	!	!	!	!	!	!
8A/L	.	.	(32cc#\LLL	.	(32ee\LLL	.	.	.	.	.	.	.	.	.	.	.	.	8a/	8ee\
.	.	.	32dd\	.	32ff#\	.	.	.	.	.	.	.	.	.	.	.	.	.	.
.	.	.	32cc#\	.	32ee\	.	.	.	.	.	.	.	.	.	.	.	.	.	.
.	.	.	32b\JJ)	.	32dd\JJ)	.	.	.	.	.	.	.	.	.	.	.	.	.	.
16r	.	.	8a`\J	.	8cc#\J	.	.	.	.	.	.	.	.	.	.	.	.	8r	8r
16AA\Jk	.	.	.	.	.	.	.	.	.	.	.	.	.	.	.	.	.	.	.
!LO:TX:a:t=P:problem:mixed beam	!	!	!	!	!	!	!	!	!	!	!	!	!	!	!	!	!	!	!
8A\L	.	.	8a\L	.	16r	.	.	.	.	.	.	.	.	.	.	.	.	8r	8r
.	.	.	.	.	32cc#\LLL	.	.	.	.	.	.	.	.	.	.	.	.	.	.
.	.	.	.	.	32dd\JJJ	.	.	.	.	.	.	.	.	.	.	.	.	.	.
8AA/	.	.	16cc#\L	.	16ee\LL	.	.	.	.	.	.	.	.	.	.	.	.	8a/L	8ee\L
.	.	.	16dd\JJ	.	16ff#\JJ	.	.	.	.	.	.	.	.	.	.	.	.	.	.
8AA/	.	.	(16ee\LL	.	16gg\LL	.	.	.	.	.	.	.	.	.	.	.	.	8a/	8ee\
.	.	.	16cc#\)	.	16ee\	.	.	.	.	.	.	.	.	.	.	.	.	.	.
8AA/J	.	.	(16ff#\	.	16aa\	.	.	.	.	.	.	.	.	.	.	.	.	8ee/J	8gg\J
.	.	.	16ee\JJ)	.	16gg\JJ	.	.	.	.	.	.	.	.	.	.	.	.	.	.
!	!	!	!LO:LB:g=original	!	!	!	!	!	!	!	!	!	!	!	!	!	!	!	!
=7	=7	=7	=7	=7	=7	=7	=7	=7	=7	=7	=7	=7	=7	=7	=7	=7	=7	=7	=7
!	!	!	!LO:TX:a:t=P:problem:takty 7-8 zapisane repetycją	!	!LO:TX:a:t=P:problem:takty 7-8 zapisane repetycją	!LO:DY:b:t=pia	!	!	!	!	!	!	!	!	!	!	!	!LO:TX:a:t=P:problem:takty 7-8 zapisane repetycją	!LO:TX:a:t=P:problem:takty 7-8 zapisane repetycją
8D\L	.	.	(32ff#\LLLyy	.	(32aa\LLLyy	p	.	.	.	.	.	.	.	.	.	.	.	8ff#\yy	8aa\yy
.	.	.	32gg\yy	.	32bb\yy	.	.	.	.	.	.	.	.	.	.	.	.	.	.
.	.	.	32ff#\)yy	.	32aa\yy	.	.	.	.	.	.	.	.	.	.	.	.	.	.
.	.	.	32ee\JJJyy	.	32gg\JJyy	.	.	.	.	.	.	.	.	.	.	.	.	.	.
16r	.	.	16dd\LLyy	.	8ff#\J)yy	.	.	.	.	.	.	.	.	.	.	.	.	8ryy	8ryy
16d\Jk	.	.	16a\JJyy	.	.	.	.	.	.	.	.	.	.	.	.	.	.	.	.
!LO:TX:a:t=P:problem:mixed beam	!	!	!	!	!	!	!	!	!	!	!	!	!	!	!	!	!	!	!
8d\L	.	.	(32a/LLLyy	.	(32ff#\LLLyy	.	.	.	.	.	.	.	.	.	.	.	.	8dd\yy	8ff#\yy
.	.	.	32b/yy	.	32gg\yy	.	.	.	.	.	.	.	.	.	.	.	.	.	.
.	.	.	32a/yy	.	32ff#\yy	.	.	.	.	.	.	.	.	.	.	.	.	.	.
.	.	.	32g/JJ)yy	.	32ee\JJyy	.	.	.	.	.	.	.	.	.	.	.	.	.	.
16r	.	.	8f#/Jyy	.	8dd\J)yy	.	.	.	.	.	.	.	.	.	.	.	.	8ryy	8ryy
16D/Jk	.	.	.	.	.	.	.	.	.	.	.	.	.	.	.	.	.	.	.
!LO:TX:a:t=P:problem:mixed beam	!	!	!	!	!	!	!	!	!	!	!	!	!	!	!	!	!	!	!
8d\L	.	.	16f#/LLyy	.	16ryy	.	.	.	.	.	.	.	.	.	.	.	.	8f#/yy	8dd\yy
.	.	.	16a/yy	.	32dd\LLLyy	.	.	.	.	.	.	.	.	.	.	.	.	.	.
.	.	.	.	.	32ee\JJJyy	.	.	.	.	.	.	.	.	.	.	.	.	.	.
!	!	!	!	!	!LO:LB:g=original	!	!	!	!	!	!	!	!	!	!	!	!	!	!
8D/	.	.	16dd/yy	.	16ff#\LLyy	.	.	.	.	.	.	.	.	.	.	.	.	8ryy	8ryy
.	.	.	16ee/JJyy	.	16gg\JJyy	.	.	.	.	.	.	.	.	.	.	.	.	.	.
8D/	.	.	16ff#\LLyy	.	16aa\LLyy	.	.	.	.	.	.	.	.	.	.	.	.	4ryy	4ryy
.	.	.	16dd\yy	.	16ff#\yy	.	.	.	.	.	.	.	.	.	.	.	.	.	.
8D/J	.	.	16gg\yy	.	16bb\yy	.	.	.	.	.	.	.	.	.	.	.	.	.	.
.	.	.	16ff#\JJyy	.	16aa\JJyy	.	.	.	.	.	.	.	.	.	.	.	.	.	.
=8	=8	=8	=8	=8	=8	=8	=8	=8	=8	=8	=8	=8	=8	=8	=8	=8	=8	=8	=8
!LO:TX:a:t=P:problem:mixed beam	!	!	!	!	!	!	!	!	!	!	!	!	!	!	!	!	!	!	!
8AA/L	.	.	(32ee\LLLyy	.	(32gg\LLLyy	.	.	.	.	.	.	.	.	.	.	.	.	8ee\yy	8gg\yy
.	.	.	32ff#\yy	.	32aa\yy	.	.	.	.	.	.	.	.	.	.	.	.	.	.
.	.	.	32ee\yy	.	32gg\yy	.	.	.	.	.	.	.	.	.	.	.	.	.	.
.	.	.	32dd\JJ)yy	.	32ff#\JJ)yy	.	.	.	.	.	.	.	.	.	.	.	.	.	.
16r	.	.	8cc#\Jyy	.	8ee\Jyy	.	.	.	.	.	.	.	.	.	.	.	.	8ryy	8ryy
16A\Jk	.	.	.	.	.	.	.	.	.	.	.	.	.	.	.	.	.	.	.
!LO:TX:a:t=P:problem:mixed beam	!	!	!	!	!	!	!	!	!	!	!	!	!	!	!	!	!	!	!
8A\L	.	.	(32cc#\LLLyy	.	(32ee\LLLyy	.	.	.	.	.	.	.	.	.	.	.	.	8a/yy	8ee\yy
.	.	.	32dd\yy	.	32ff#\yy	.	.	.	.	.	.	.	.	.	.	.	.	.	.
.	.	.	32cc#\yy	.	32ee\yy	.	.	.	.	.	.	.	.	.	.	.	.	.	.
.	.	.	32b\JJ)yy	.	32dd\JJ)yy	.	.	.	.	.	.	.	.	.	.	.	.	.	.
16r	.	.	8a`\Jyy	.	8cc#\Jyy	.	.	.	.	.	.	.	.	.	.	.	.	8ryy	8ryy
16AA/Jk	.	.	.	.	.	.	.	.	.	.	.	.	.	.	.	.	.	.	.
!LO:TX:a:t=P:problem:mixed beam	!	!	!	!	!	!	!	!	!	!	!	!	!	!	!	!	!	!	!
8A\L	.	.	8a\Lyy	.	16ryy	.	.	.	.	.	.	.	.	.	.	.	.	8ryy	8ryy
.	.	.	.	.	32cc#\LLLyy	.	.	.	.	.	.	.	.	.	.	.	.	.	.
.	.	.	.	.	32dd\JJJyy	.	.	.	.	.	.	.	.	.	.	.	.	.	.
8AA/	.	.	16cc#\Lyy	.	16ee\LLyy	.	.	.	.	.	.	.	.	.	.	.	.	8a/Lyy	8ee\Lyy
.	.	.	16dd\JJyy	.	16ff#\JJyy	.	.	.	.	.	.	.	.	.	.	.	.	.	.
8AA/	.	.	(16ee\LLyy	.	16gg\LLyy	.	.	.	.	.	.	.	.	.	.	.	.	8a/yy	8ee\yy
.	.	.	16cc#\)yy	.	16ee\yy	.	.	.	.	.	.	.	.	.	.	.	.	.	.
8AA/J	.	.	(16ff#\yy	.	16aa\yy	.	.	.	.	.	.	.	.	.	.	.	.	8ee/Jyy	8gg\Jyy
.	.	.	16ee\JJ)yy	.	16gg\JJyy	.	.	.	.	.	.	.	.	.	.	.	.	.	.
!	!	!	!LO:LB:g=original	!	!	!	!	!	!	!	!	!	!	!	!	!	!	!	!
=9	=9	=9	=9	=9	=9	=9	=9	=9	=9	=9	=9	=9	=9	=9	=9	=9	=9	=9	=9
*	*	*	*^	*	*	*	*	*	*	*	*	*	*	*	*	*	*	*	*
!LO:TX:a:i:t=Tutti	!	!	!	!	!	!	!	!	!	!	!	!	!	!	!	!	!	!	!	!
16r	.	.	16a/KL	16a\KL	.	8ff#\	.	8D/	qui-	8B\	qui-	.	8a\	Qui-	.	8ff#\	qui-	.	4dd\	4ff#\
16D\KL	.	.	8a/	8a\	.	.	.	.	.	.	.	.	.	.	.	.	.	.	.	.
8d\J	.	.	.	.	.	16r	.	16D/	-a	16B\	-a	.	16a\	-a	.	16ff#\	-a	.	.	.
.	.	.	8a/	8a\	.	32aa\LLL	.	16D/	re-	16B\	re-	.	16a\	res-	.	16ff#\	re-	.	.	.
.	.	.	.	.	.	32ff#\JJJ	.	.	.	.	.	.	.	.	.	.	.	.	.	.
!	!	!	!	!	!	!LO:LB:g=original	!	!	!	!	!	!	!	!	!	!	!	!	!	!
16r	.	.	.	.	.	8ee\L	.	8A\	-spe-	8c#\	-spe-	.	8a\	-pe-	.	8ee\	-spe-	.	4r	4r
16C#\KL	.	.	8a/	8a\	.	.	.	.	.	.	.	.	.	.	.	.	.	.	.	.
8c#\J	.	.	.	.	.	16r	.	16A\	-xit	16c#\	-xit	.	16a\	-xit	.	16ee\	-xit	.	.	.
.	.	.	16a/Jk	16a\Jk	.	16ee\Jk	.	16A\	hu-	16c#\	hu-	.	16a\	hu-	.	16ee\	hu-	.	.	.
!	!	!	!	!	!	!	!	!	!	!LO:LB:g=original	!	!	!	!	!	!LO:LB:g=original	!	!	!	!
16r	.	.	16g#X/KL	4ryy	.	8dd\	.	8G#X\	-mi-	8B\	-mi-	.	8e\	-mi-	.	8dd\	-mi-	.	2r	2r
!LO:TX:a:t=P:problem:mixed beam	!	!	!	!	!	!	!	!	!	!	!	!	!	!	!	!	!	!	!	!
16BB/KL	.	.	8g#/	.	.	.	.	.	.	.	.	.	.	.	.	.	.	.	.	.
8B\J	.	.	.	.	.	16r	.	8G#\	-li-	8B\	-li-	.	8e\	-li-	.	8dd\	-li-	.	.	.
.	.	.	16g#/Jk	.	.	32bb\LLL	.	.	.	.	.	.	.	.	.	.	.	.	.	.
.	.	.	.	.	.	32dd\JJJ	.	.	.	.	.	.	.	.	.	.	.	.	.	.
!	!	!	!	!	!	!	!	!	!	!	!	!	!LO:LB:g=original	!	!	!	!	!	!	!
16r	.	.	16e/KL	4ryy	.	8cc#\L	.	8A\	-ta-	8e\	-ta-	.	8e\	-ta-	.	8cc#\	-ta-	.	.	.
!LO:TX:a:t=P:problem:mixed beam	!	!	!	!	!	!	!	!	!	!	!	!	!	!	!	!	!	!	!	!
16AA/KL	.	.	8e/	.	.	.	.	.	.	.	.	.	.	.	.	.	.	.	.	.
8A\J	.	.	.	.	.	16r	.	8A\	-tem	8e\	-tem	.	8e\	-tem	.	8cc#\	-tem	.	.	.
.	.	.	16e/Jk	.	.	16cc#\Jk	.	.	.	.	.	.	.	.	.	.	.	.	.	.
*	*	*	*v	*v	*	*	*	*	*	*	*	*	*	*	*	*	*	*	*	*
!LO:LB:g=original	!	!	!	!	!	!	!	!	!	!	!	!	!	!	!	!	!	!	!
=10	=10	=10	=10	=10	=10	=10	=10	=10	=10	=10	=10	=10	=10	=10	=10	=10	=10	=10	=10
!	!	!	!	!	!	!	!	!	!	!	!	!	!	!	!	!	!	!LO:TX:a:t=5	!LO:TX:a:t=5
8D/L	6	.	16f#/KL	.	16b/KL	.	4D/	an-	4d\	An-	.	4f#\	an-	.	4b\	An-	.	00r	00r
.	.	.	8f#/	.	8b/	.	.	.	.	.	.	.	.	.	.	.	.	.	.
16r	.	.	.	.	.	.	.	.	.	.	.	.	.	.	.	.	.	.	.
16D/Jk	.	.	8f#/	.	8b/	.	.	.	.	.	.	.	.	.	.	.	.	.	.
8D#X/L	6 5	.	.	.	.	.	8D/	-cil-	8d\	-cil-	.	8f#\	-cil-	.	8b\	-cil-	.	.	.
.	.	.	8f#/	.	8b/	.	.	.	.	.	.	.	.	.	.	.	.	.	.
16r	.	.	.	.	.	.	8D#X/	-lae	8B\	-lae	.	8f#\	-lae	.	8a\	-lae	.	.	.
16D#/Jk	.	.	16f#/Jk	.	16a/Jk	.	.	.	.	.	.	.	.	.	.	.	.	.	.
!	!	!	!	!	!LO:TX:a:t=P:problem:mixed beam	!	!LO:LB:g=original	!	!	!	!	!	!	!	!	!	!	!	!
8E\L	.	.	8B/L	.	8g#X/L	.	4E\	su-	4B\	su-	.	4g#X\	su-	.	8g#X\L	su-	.	.	.
8e\J	.	.	8g#X/J	.	8ee\J	.	.	.	.	.	.	.	.	.	8ee\J	.	.	.	.
*	*	*	*	*	*4\right	*	*	*	*	*	*	*	*	*	*	*	*	*	*
16e\LL	.	.	(16f#/LL	.	4ee\	.	8E\	-ae	4B\	-ae	.	4g#\	-ae.	.	4ee\	-ae	.	.	.
16dn\	.	.	16f#/	.	.	.	.	.	.	.	.	.	.	.	.	.	.	.	.
!	!	!	!	!	!	!LO:DY:b:t=piano	!	!	!	!	!	!LO:TX:a:i:t=Solo.	!	!	!	!	!	!	!
16c#\	.	.	16e/	.	.	p	8r	.	.	.	.	.	.	.	.	.	.	.	.
16B\JJ	.	.	16d/JJ)	.	.	.	.	.	.	.	.	.	.	.	.	.	.	.	.
=11	=11	=11	=11	=11	=11	=11	=11	=11	=11	=11	=11	=11	=11	=11	=11	=11	=11	=11	=11
!	!	!LO:DY:b:t=piano	!LO:TX:a:t=P:problem:mixed beam	!LO:DY:b:t=pia	!	!	!LO:TX:a:t=4	!	!LO:TX:a:t=4	!	!	!	!	!	!LO:TX:a:i:t=Solo.	!	!	!	!
8A\	.	p	8c#/L	p	8ee`\L	.	00r	.	00r	.	.	8.cc#\L	Ec-	.	8.ee\L	ec-	.	.	.
8r	.	.	(>32cc#\LL	.	(32ee\LL	.	.	.	.	.	.	.	.	.	.	.	.	.	.
.	.	.	32dd\	.	32ff#\	.	.	.	.	.	.	.	.	.	.	.	.	.	.
.	.	.	32cc#\	.	32ee\	.	.	.	.	.	.	16b\Jk	.	.	16dd\Jk	.	.	.	.
.	.	.	32b\JJJ)	.	32dd\JJJ	.	.	.	.	.	.	.	.	.	.	.	.	.	.
!LO:TX:a:t=P:problem:mixed beam	!	!	!LO:TX:a:t=P:problem:mixed beam	!	!	!	!	!	!	!	!	!	!	!	!	!	!	!	!
8AA/L	.	.	8a\L	.	8cc#\)	.	.	.	.	.	.	4a\	-ce.	.	4cc#\	-ce	.	.	.
(>32A\LL	.	.	(32e/LL	.	16r	.	.	.	.	.	.	.	.	.	.	.	.	.	.
32G#X\	.	.	32f#/	.	.	.	.	.	.	.	.	.	.	.	.	.	.	.	.
32A\	.	.	32e/	.	32a\LLL	.	.	.	.	.	.	.	.	.	.	.	.	.	.
32G#\JJJ)	.	.	32d/JJJ)	.	32b\JJJ	.	.	.	.	.	.	.	.	.	.	.	.	.	.
!LO:TX:a:t=P:problem:mixed beam	!	!	!LO:LB:g=original	!	!LO:LB:g=original	!	!	!	!	!	!	!	!	!	!	!	!	!	!
8A\L	.	.	8c#/L	.	16cc#\LL	.	.	.	.	.	.	2r	.	.	2r	.	.	.	.
.	.	.	.	.	16dd\	.	.	.	.	.	.	.	.	.	.	.	.	.	.
8AA/	.	.	8cc# 8e/	.	16ee\	.	.	.	.	.	.	.	.	.	.	.	.	.	.
.	.	.	.	.	16ff#\JJ	.	.	.	.	.	.	.	.	.	.	.	.	.	.
8AA/	.	.	8cc# 8e/	.	(16gg#X\LL	.	.	.	.	.	.	.	.	.	.	.	.	.	.
.	.	.	.	.	16aa\	.	.	.	.	.	.	.	.	.	.	.	.	.	.
8AA/J	.	.	8cc#J 8e/	.	16ee\	.	.	.	.	.	.	.	.	.	.	.	.	.	.
.	.	.	.	.	16cc#\JJ)	.	.	.	.	.	.	.	.	.	.	.	.	.	.
=12	=12	=12	=12	=12	=12	=12	=12	=12	=12	=12	=12	=12	=12	=12	=12	=12	=12	=12	=12
8E\	.	.	8b\L	.	8dd`\L	.	.	.	.	.	.	8.b\L	e-	.	8.dd\L	e-	.	.	.
8r	.	.	(32b\LL	.	(32dd\LL	.	.	.	.	.	.	.	.	.	.	.	.	.	.
.	.	.	32cc#\	.	32ee\	.	.	.	.	.	.	.	.	.	.	.	.	.	.
.	.	.	32b\	.	32dd\	.	.	.	.	.	.	16a\Jk	.	.	16cc#\Jk	.	.	.	.
.	.	.	32a\JJJ)	.	32cc#\JJJ)	.	.	.	.	.	.	.	.	.	.	.	.	.	.
8E`\L	.	.	8g#X/L	.	8b\	.	.	.	.	.	.	8g#X\	-nim	.	8b\	-nim	.	.	.
(32e\LL	.	.	(32d/LL	.	16r	.	.	.	.	.	.	16e\LL	ex	.	16g#X/LL	ex	.	.	.
32d#X\	.	.	32e/	.	.	.	.	.	.	.	.	.	.	.	.	.	.	.	.
32e\	.	.	(32d/)	.	32g#X/LLL	.	.	.	.	.	.	16f#\JJ	.	.	16a/JJ	.	.	.	.
32d#\JJJ)	.	.	32c#/JJJ)	.	32a/JJJ	.	.	.	.	.	.	.	.	.	.	.	.	.	.
!	!	!	!	!	!	!	!	!	!	!	!	!	!	!	!LO:LB:g=original	!	!	!	!
8e\L	.	.	16g#LL 16B/	.	16b\LL	.	.	.	.	.	.	16g#\LL	hoc	.	16b\LL	hoc	.	.	.
.	.	.	(16a/	.	16cc#\	.	.	.	.	.	.	16a\JJ	.	.	16cc#\JJ	.	.	.	.
8E\	.	.	16b/	.	16dd\	.	.	.	.	.	.	16b\LL	be-	.	16dd\LL	be-	.	.	.
.	.	.	16a/JJ)	.	16cc#\JJ	.	.	.	.	.	.	16a\JJ	.	.	16cc#\JJ	.	.	.	.
!	!	!	!	!	!	!	!	!	!	!	!	!LO:LB:g=original	!	!	!	!	!	!	!
8E\	.	.	(16b\LL	.	16dd\LL	.	.	.	.	.	.	16b\LL	-a-	.	16dd\LL	-a-	.	.	.
.	.	.	16cc#\	.	16ee\	.	.	.	.	.	.	16cc#\JJ	.	.	16ee\JJ	.	.	.	.
8E\J	.	.	16dd\)	.	16ff#\	.	.	.	.	.	.	16dd\LL	-tam	.	16ff#\LL	-tam	.	.	.
.	.	.	16b\JJ	.	16dd\JJ	.	.	.	.	.	.	16b\JJ	.	.	16dd\JJ	.	.	.	.
=13	=13	=13	=13	=13	=13	=13	=13	=13	=13	=13	=13	=13	=13	=13	=13	=13	=13	=13	=13
8A\	.	.	8a 8e/	.	(8cc#\L	.	.	.	.	.	.	8cc#\	me	.	8ee\	me	.	.	.
8r	.	.	32cc#\LLL	.	32ee\LL	.	.	.	.	.	.	(16cc#\LL	di-	.	16ee\LL	di-	.	.	.
.	.	.	32dd\	.	32ff#\	.	.	.	.	.	.	.	.	.	.	.	.	.	.
.	.	.	32cc#\	.	32ee\	.	.	.	.	.	.	16b\JJ)	.	.	16dd\JJ	.	.	.	.
.	.	.	32b\JJJ	.	32dd\JJJ)	.	.	.	.	.	.	.	.	.	.	.	.	.	.
!LO:TX:a:t=P:problem:mixed beam	!	!	!	!	!	!	!	!	!	!	!	!	!	!	!	!	!	!	!
8AA`/L	.	.	8a/L	.	8cc#\	.	.	.	.	.	.	4a\	-cent.	.	8cc#\	-cent	.	.	.
!	!	!	!	!	!LO:LB:g=original	!	!	!	!	!	!	!	!	!	!	!	!	!	!
(>32A\LL	.	.	(32e/LL	.	16r	.	.	.	.	.	.	.	.	.	8r	.	.	.	.
32G\	.	.	32f#/	.	.	.	.	.	.	.	.	.	.	.	.	.	.	.	.
32A\	.	.	32e/	.	32a\LLL	.	.	.	.	.	.	.	.	.	.	.	.	.	.
32G\JJJ)	.	.	32d/JJJ)	.	32b\JJJ	.	.	.	.	.	.	.	.	.	.	.	.	.	.
!LO:LB:g=original	!	!	!	!	!	!	!	!	!	!	!	!	!	!	!	!	!	!	!
!LO:TX:a:t=P:problem:mixed beam	!	!	!	!	!	!	!	!	!	!	!	!	!	!	!	!	!	!	!
8A\L	.	.	8c#/L	.	16cc#\LL	.	.	.	.	.	.	2r	.	.	2r	.	.	.	.
.	.	.	.	.	16dd\	.	.	.	.	.	.	.	.	.	.	.	.	.	.
8AA/	.	.	8cc# 8e/	.	16ee\	.	.	.	.	.	.	.	.	.	.	.	.	.	.
.	.	.	.	.	16ff#\JJ	.	.	.	.	.	.	.	.	.	.	.	.	.	.
8AA/	.	.	8cc# 8e/	.	16gg#X\LL	.	.	.	.	.	.	.	.	.	.	.	.	.	.
.	.	.	.	.	16aa\	.	.	.	.	.	.	.	.	.	.	.	.	.	.
8AA/J	.	.	8cc#J 8e/	.	16ee\	.	.	.	.	.	.	.	.	.	.	.	.	.	.
.	.	.	.	.	16cc#\JJ	.	.	.	.	.	.	.	.	.	.	.	.	.	.
!	!	!	!LO:PB:g=original	!	!	!	!	!	!	!	!	!	!	!	!	!	!	!	!
=14	=14	=14	=14	=14	=14	=14	=14	=14	=14	=14	=14	=14	=14	=14	=14	=14	=14	=14	=14
8E\	.	.	8b\L	.	8dd`\L	.	.	.	.	.	.	8.b\L	om-	.	(8.dd\L	om-	.	1r	1r
8r	.	.	32b\LL	.	(32dd\LL	.	.	.	.	.	.	.	.	.	.	.	.	.	.
.	.	.	32cc#\	.	32ee\	.	.	.	.	.	.	.	.	.	.	.	.	.	.
.	.	.	32b\	.	32dd\	.	.	.	.	.	.	16a\Jk	.	.	16cc#\Jk)	.	.	.	.
.	.	.	32a\JJJ	.	32cc#\JJJ)	.	.	.	.	.	.	.	.	.	.	.	.	.	.
!	!	!	!LO:TX:a:t=P:problem:mixed beam	!	!	!	!	!	!	!	!	!	!	!	!	!	!	!	!
(8E`\L	.	.	8g#X/L	.	8b\	.	.	.	.	.	.	8g#X\	-nes	.	8b\	-nes	.	.	.
32e\LL	.	.	32dd\LL	.	16r	.	.	.	.	.	.	16e\	ge-	.	16g#X/	ge-	.	.	.
32d#X\	.	.	32ee\	.	.	.	.	.	.	.	.	.	.	.	.	.	.	.	.
32e\)	.	.	32dd\	.	32g#X/LLL	.	.	.	.	.	.	16f#\	-ne-	.	16a/	-ne-	.	.	.
32d#\JJJ	.	.	32cc#\JJJ	.	32a/JJJ	.	.	.	.	.	.	.	.	.	.	.	.	.	.
8e\L	.	.	16b\LL	.	(16b\LL	.	.	.	.	.	.	16g#\LL	-ra-	.	16b\LL	-ra-	.	.	.
.	.	.	16a\	.	16cc#\	.	.	.	.	.	.	16a\JJ	.	.	16cc#\JJ	.	.	.	.
8E\	.	.	16b\	.	16dd\	.	.	.	.	.	.	16b\LL	-ti-	.	16dd\LL	-ti-	.	.	.
.	.	.	16a\JJ	.	16cc#\JJ)	.	.	.	.	.	.	16a\JJ	.	.	16cc#\JJ	.	.	.	.
!	!	!	!	!	!	!	!	!	!	!	!	!	!	!	!LO:LB:g=original	!	!	!	!
8E\	.	.	16b\LL	.	(16dd\LL	.	.	.	.	.	.	16b\LL	-o-	.	16dd\LL	-o-	.	.	.
.	.	.	16cc#\	.	16ee\	.	.	.	.	.	.	16cc#\JJ	.	.	16ee\JJ	.	.	.	.
8E\J	.	.	16dd\	.	16ff#\	.	.	.	.	.	.	16dd\LL	-nes	.	16ff#\LL	-nes	.	.	.
.	.	.	16b\JJ	.	16dd\JJ)	.	.	.	.	.	.	16b\JJ	.	.	16dd\JJ	.	.	.	.
!	!	!	!	!	!	!	!	!	!	!	!	!	!	!	!	!	!	!LO:LB:g=original	!
=15!|:	=15!|:	=15!|:	=15!|:	=15!|:	=15!|:	=15!|:	=15!|:	=15!|:	=15!|:	=15!|:	=15!|:	=15!|:	=15!|:	=15!|:	=15!|:	=15!|:	=15!|:	=15!|:	=15!|:
*>B	*	*	*>B	*	*>B	*	*>B	*	*>B	*	*	*>B	*	*	*	*	*	*>B	*>B
*tremolo	*	*	*	*	*	*	*	*	*	*	*	*	*	*	*	*	*	*	*
*2\right	*	*	*	*	*	*	*	*	*	*	*	*	*	*	*	*	*	*	*
!LO:TX:a:i:t=Tutti	!	!	!	!	!	!LO:DY:b:t=for	!	!	!	!	!	!	!	!	!LO:TX:a:i:t=Tutti	!	!	!	!
16A\LL	.	.	16cc#KL 16e/	.	8cc#`\L	f	8A\	et	8e\	et	.	8a\	et	.	8cc#\	et	.	8a/L	8ee\L
16A\	.	.	8cc# 8e/	.	.	.	.	.	.	.	.	.	.	.	.	.	.	.	.
16A\	.	.	.	.	(32aa\LL	.	8A\	mi-	8e\	mi-	.	8a\	mi-	.	8cc#\	mi-	.	16a/L	16ee\L
.	.	.	.	.	32gg#X\	.	.	.	.	.	.	.	.	.	.	.	.	.	.
16A\	.	.	8cc# 8e/	.	32aa\	.	.	.	.	.	.	.	.	.	.	.	.	16a/JJ	16ee\JJ
.	.	.	.	.	32gg#\JJJ)	.	.	.	.	.	.	.	.	.	.	.	.	.	.
!	!	!	!	!	!	!	!	!	!	!	!	!LO:LB:g=original	!	!	!	!	!	!	!
16A\	.	.	.	.	8aa\L	.	8A\	-se-	8e\	-se-	.	8a\	-se-	.	8cc#\	-ſe-	.	4a/	4ee\
16A\	.	.	8cc# 8e/	.	.	.	.	.	.	.	.	.	.	.	.	.	.	.	.
16A\	.	.	.	.	8cc#\J	.	8A\	-ri-	8e\	-ri-	.	8a\	-ri-	.	8cc#\	-ri-	.	.	.
16A\JJ	.	.	16cc#Jk 16e/	.	.	.	.	.	.	.	.	.	.	.	.	.	.	.	.
!	!	!	!	!	!LO:LB:g=original	!	!	!	!LO:LB:g=original	!	!	!	!	!	!	!	!	!	!
16G#X\LL	6 5	.	16bKL 16e/	.	8dd`\L	.	16G#X\	-cor-	16e\	-cor-	.	16b\	-cor-	.	16dd\	-cor-	.	2r	2r
16G#\	.	.	8b 8e/	.	.	.	16G#\	-di-	16e\	-di-	.	16b\	-di-	.	16dd\	-di-	.	.	.
16G#\	.	.	.	.	(32bb\LL	.	8G#\	-a	8e\	-a	.	8b\	-a	.	8dd\	-a	.	.	.
.	.	.	.	.	32aa#X\)	.	.	.	.	.	.	.	.	.	.	.	.	.	.
16G#\	.	.	8b 8e/	.	(32bb\	.	.	.	.	.	.	.	.	.	.	.	.	.	.
.	.	.	.	.	32aa#\JJJ)	.	.	.	.	.	.	.	.	.	.	.	.	.	.
16G#\	.	.	.	.	8bb\L	.	8G#\	e-	8e\	e-	.	8b\	e-	.	8dd\	e-	.	.	.
16G#\	.	.	8b 8e/	.	.	.	.	.	.	.	.	.	.	.	.	.	.	.	.
16G#\	.	.	.	.	8dd\J	.	8G#\	-jus	8e\	-jus	.	8b\	-jus	.	8dd\	-jus	.	.	.
16G#\JJ	.	.	16bJk 16e/	.	.	.	.	.	.	.	.	.	.	.	.	.	.	.	.
=16:|!	=16:|!	=16:|!	=16:|!	=16:|!	=16:|!	=16:|!	=16:|!	=16:|!	=16:|!	=16:|!	=16:|!	=16:|!	=16:|!	=16:|!	=16:|!	=16:|!	=16:|!	=16:|!	=16:|!
*>C	*	*	*>C	*	*>C	*	*>C	*	*>C	*	*	*>C	*	*	*>C	*	*	*>C	*>C
16Gn\LL	4 2	.	16aKL 16e/	.	8eeL 8a\	.	8Gn\	a	8e\	a	.	8a\	a	.	8ee\	a	.	8a/L	8ee\L
16G\	.	.	8a 8e/	.	.	.	.	.	.	.	.	.	.	.	.	.	.	.	.
16G\	.	.	.	.	32ccc#\LL	.	8G\	pro-	8e\	pro-	.	8a\	pro-	.	8ee\	pro-	.	16a/L	16ee\L
.	.	.	.	.	(32bb\	.	.	.	.	.	.	.	.	.	.	.	.	.	.
16G\	.	.	8a 8e/	.	32aa\	.	.	.	.	.	.	.	.	.	.	.	.	16a/JJ	16ee\JJ
.	.	.	.	.	32bb\JJJ)	.	.	.	.	.	.	.	.	.	.	.	.	.	.
16G\	.	.	.	.	8ccc#\L	.	16G\	-je-	16e\	-ge-	.	16a\	-je-	.	16ee\	-je-	.	4a/	4ee\
16G\	.	.	8a 8e/	.	.	.	16G\	-ni-	16e\	-ni-	.	16a\	-ni-	.	16ee\	-ni-	.	.	.
16G\	.	.	.	.	8aa\J	.	8G\	-e	8e\	-e	.	8a\	-e	.	8ee\	-e	.	.	.
16G\JJ	.	.	16aJk 16e/	.	.	.	.	.	.	.	.	.	.	.	.	.	.	.	.
!	!	!	!	!	!	!	!	!	!	!	!	!	!	!	!LO:LB:g=original	!	!	!	!
16F#\LL	#	.	16eeKL 16cc#\	.	8aa#X\L	.	8F#\	in	8c#\	in	.	8a#X\	in	.	8ee\	in	.	2r	2r
16F#\	.	.	8ee 8cc#\	.	.	.	.	.	.	.	.	.	.	.	.	.	.	.	.
16F#\	.	.	.	.	32ccc#\LL	.	8F#\	pro-	8c#\	pro-	.	8a#\	pro-	.	8ee\	pro-	.	.	.
.	.	.	.	.	(32bb\	.	.	.	.	.	.	.	.	.	.	.	.	.	.
16F#\	.	.	8ee 8cc#\	.	32aa#\	.	.	.	.	.	.	.	.	.	.	.	.	.	.
.	.	.	.	.	32bb\JJJ)	.	.	.	.	.	.	.	.	.	.	.	.	.	.
!	!	!	!	!	!	!	!LO:LB:g=original	!	!	!	!	!	!	!	!	!	!	!	!
16F#\	.	.	.	.	8ccc#\L	.	16F#\	-ge-	16c#\	-je-	.	16a#X\	-ge-	.	16ee\	-je-	.	.	.
16F#\	.	.	8ee 8cc#\	.	.	.	16F#\	-ni-	16c#\	-ni-	.	16a#\	-ni-	.	16ee\	-ni-	.	.	.
16F#\	.	.	.	.	8aa#\J	.	8F#\	-is	8c#\	-is	.	8a#\	-es	.	8ee\	-is	.	.	.
16F#\JJ	.	.	16eeJk 16cc#\	.	.	.	.	.	.	.	.	.	.	.	.	.	.	.	.
*Xtremolo	*	*	*	*	*	*	*	*	*	*	*	*	*	*	*	*	*	*	*
!	!	!	!LO:LB:g=original	!	!	!	!	!	!LO:LB:g=original	!	!	!LO:LB:g=original	!	!	!	!	!	!	!
=17	=17	=17	=17	=17	=17	=17	=17	=17	=17	=17	=17	=17	=17	=17	=17	=17	=17	=17	=17
!	!	!	!	!	!	!	!	!	!	!	!	!	!	!	!	!	!	!LO:TX:a:t=23 Pau	!LO:TX:a:t=23 p.
16BB/LL	.	.	16ddKL 16f#/	.	8bb\L	.	4B\	ti-	4f#\	ti-	.	4f#\	Ti-	.	4dd\	ti-	.	1r	1r
16D/	.	.	8dd 8f#/	.	.	.	.	.	.	.	.	.	.	.	.	.	.	.	.
16F#/	.	.	.	.	8ff#\J	.	.	.	.	.	.	.	.	.	.	.	.	.	.
16D/JJ	.	.	8dd 8f#/	.	.	.	.	.	.	.	.	.	.	.	.	.	.	.	.
16BB/LL	.	.	.	.	4ff#\	.	16B\	-men-	16f#\	-men-	.	16f#\	-men-	.	16dd\	-men-	.	.	.
16D/	.	.	8dd 8f#/	.	.	.	16B\	-ti-	16f#\	-ti-	.	16f#\	-ti-	.	16dd\	-ti-	.	.	.
16F#/	.	.	.	.	.	.	8B\	-bus	8f#\	-bus	.	8f#\	-bus	.	8dd\	-bus	.	.	.
16D/JJ	.	.	16ddJk 16f#/	.	.	.	.	.	.	.	.	.	.	.	.	.	.	.	.
*rep	*	*	*	*	*	*	*	*	*	*	*	*	*	*	*	*	*	*	*
16BB/LL	.	.	(16b\LL	.	16r	.	4B\	e-	4f#\	e-	.	4f#\	eum	.	4dd\	e-	.	.	.
16D/	.	.	16dd\JJ)	.	16ff#\LL	.	.	.	.	.	.	.	.	.	.	.	.	.	.
!	!	!	!LO:TX:a:t=P:problem:mixed beam	!	!	!	!	!	!	!	!	!	!	!	!	!	!	!	!
16F#/	.	.	(>16f#/LL	.	16gg#X\	.	.	.	.	.	.	.	.	.	.	.	.	.	.
16D/JJ	.	.	16dd\JJ)	.	16aa#X\JJ	.	.	.	.	.	.	.	.	.	.	.	.	.	.
*Xrep	*	*	*	*	*	*	*	*	*	*	*	*	*	*	*	*	*	*	*
*rep	*	*	*	*	*	*	*	*	*	*	*	*	*	*	*	*	*	*	*
16BB/LL	.	.	(16b\LL	.	16bb\LL	.	4B\	-um	4f#\	-um	.	4f#\	.	.	4dd\	-um	.	.	.
16D/	.	.	16dd\JJ)	.	16ccc#\	.	.	.	.	.	.	.	.	.	.	.	.	.	.
!	!	!	!LO:TX:a:t=P:problem:mixed beam	!	!	!	!	!	!	!	!	!	!	!	!	!	!	!	!
16F#/	.	.	(>16f#/LL	.	16ddd\	.	.	.	.	.	.	.	.	.	.	.	.	.	.
16D/JJ	.	.	16dd\JJ)	.	16bb\JJ	.	.	.	.	.	.	.	.	.	.	.	.	.	.
*Xrep	*	*	*	*	*	*	*	*	*	*	*	*	*	*	*	*	*	*	*
!LO:LB:g=original	!	!	!	!	!LO:LB:g=original	!	!	!	!	!	!	!	!	!	!	!	!	!	!
=18	=18	=18	=18	=18	=18	=18	=18	=18	=18	=18	=18	=18	=18	=18	=18	=18	=18	=18	=18
16AA#X/LL	.	.	16cc#KL 16f#/	.	8ccc#\L	.	4F#\	ti-	4c#\	ti-	.	4a#X\	ti-	.	4ee\	ti-	.	1r	1r
16C#/	.	.	8cc# 8f#/	.	.	.	.	.	.	.	.	.	.	.	.	.	.	.	.
16F#/	.	.	.	.	8ee\J	.	.	.	.	.	.	.	.	.	.	.	.	.	.
16C#/JJ	.	.	8cc# 8f#/	.	.	.	.	.	.	.	.	.	.	.	.	.	.	.	.
16AA#/LL	.	.	.	.	4ee\	.	16F#\	-men-	16c#\	-men-	.	16a#\	-men-	.	16ee\	-men-	.	.	.
16C#/	.	.	8cc# 8f#/	.	.	.	16F#\	-ti-	16c#\	-ti-	.	16a#\	-ti-	.	16ee\	-ti-	.	.	.
16F#/	.	.	.	.	.	.	8F#\	-bus	8c#\	-bus	.	8a#\	-bus	.	8ee\	-bus	.	.	.
16C#/JJ	.	.	16cc#Jk 16f#/	.	.	.	.	.	.	.	.	.	.	.	.	.	.	.	.
!	!	!	!	!	!	!	!	!	!	!	!	!	!	!	!LO:LB:g=original	!	!	!	!
8AA#/L	7	.	8a#X\L	.	16r	.	4F#\	e-	4c#\	e-	.	4a#\	e-	.	4ee\	e-	.	.	.
.	.	.	.	.	16cc#\LL	.	.	.	.	.	.	.	.	.	.	.	.	.	.
8AA#/	.	.	16cc#\L	.	16ee\	.	.	.	.	.	.	.	.	.	.	.	.	.	.
.	.	.	16ee\JJ	.	16gg\JJ	.	.	.	.	.	.	.	.	.	.	.	.	.	.
8AA#/	6	.	(16ee\LL	.	(16gg\LL	.	4F#\	-um	4c#\	-um	.	4a#\	-um	.	4ee\	-um	.	.	.
.	5	.	16dd\	.	16ff#\)	.	.	.	.	.	.	.	.	.	.	.	.	.	.
8AA#/J	.	.	16dd\	.	(16ff#\	.	.	.	.	.	.	.	.	.	.	.	.	.	.
.	.	.	16cc#\JJ)	.	16ee\JJ)	.	.	.	.	.	.	.	.	.	.	.	.	.	.
=19	=19	=19	=19	=19	=19	=19	=19	=19	=19	=19	=19	=19	=19	=19	=19	=19	=19	=19	=19
!	!	!	!	!	!	!	!	!	!LO:TX:a:t=P:problem:takty 19-20 zapisane repetycją	!	!	!	!	!	!	!	!	!	!
16BB/LL	.	.	16ddKL 16f#/	.	(16dd\LL	.	4B\	ti-	4f#\yy	ti-	.	4f#\	ti-	.	4dd\	ti-	.	1r	1r
16D/	.	.	8dd 8f#/	.	16bb\)	.	.	.	.	.	.	.	.	.	.	.	.	.	.
16F#/	.	.	.	.	16ff#'\	.	.	.	.	.	.	.	.	.	.	.	.	.	.
16D/JJ	.	.	8dd 8f#/	.	16ff#'\JJ	.	.	.	.	.	.	.	.	.	.	.	.	.	.
*rep	*	*	*	*	*	*	*	*	*	*	*	*	*	*	*	*	*	*	*
16BB/LL	.	.	.	.	4ff#\	.	16B\	-men-	16f#\yy	-men-	.	16f#\	-men-	.	16dd\	-men-	.	.	.
16D/	.	.	8dd 8f#/	.	.	.	16B\	-ti-	16f#\yy	-ti-	.	16f#\	-ti-	.	16dd\	-ti-	.	.	.
16F#/	.	.	.	.	.	.	8B\	-bus	8f#\yy	-bus	.	8f#\	-bus	.	8dd\	-bus	.	.	.
16D/JJ	.	.	16ddJk 16f#/	.	.	.	.	.	.	.	.	.	.	.	.	.	.	.	.
*Xrep	*	*	*	*	*	*	*	*	*	*	*	*	*	*	*	*	*	*	*
!	!	!	!LO:LB:g=original	!	!	!	!LO:LB:g=original	!	!	!	!	!LO:LB:g=original	!	!	!	!	!	!	!
*rep	*	*	*	*	*	*	*	*	*	*	*	*	*	*	*	*	*	*	*
16BB/LL	.	.	16b\LL	.	16r	.	4B\	e-	4f#\yy	e-	.	4f#\	e-	.	4dd\	e-	.	.	.
16D/	.	.	16dd\JJ	.	16ff#\LL	.	.	.	.	.	.	.	.	.	.	.	.	.	.
!	!	!	!LO:TX:a:t=P:problem:mixed beam	!	!	!	!	!	!	!	!	!	!	!	!	!	!	!	!
16F#/	.	.	16f#/LL	.	16gg#X\	.	.	.	.	.	.	.	.	.	.	.	.	.	.
16D/JJ	.	.	16dd\JJ	.	16aa#X\JJ	.	.	.	.	.	.	.	.	.	.	.	.	.	.
*Xrep	*	*	*	*	*	*	*	*	*	*	*	*	*	*	*	*	*	*	*
*rep	*	*	*	*	*	*	*	*	*	*	*	*	*	*	*	*	*	*	*
16BB/LL	.	.	16b\LL	.	16bb\LL	.	4B\	-um	4f#\yy	-um	.	4f#\	-um	.	4dd\	-um	.	.	.
16D/	.	.	16dd\JJ	.	16ccc#\	.	.	.	.	.	.	.	.	.	.	.	.	.	.
!	!	!	!LO:TX:a:t=P:problem:mixed beam	!	!	!	!	!	!	!	!	!	!	!	!	!	!	!	!
16F#/	.	.	16f#/LL	.	16ddd\	.	.	.	.	.	.	.	.	.	.	.	.	.	.
16D/JJ	.	.	16dd\JJ	.	16bb\JJ	.	.	.	.	.	.	.	.	.	.	.	.	.	.
*Xrep	*	*	*	*	*	*	*	*	*	*	*	*	*	*	*	*	*	*	*
=20	=20	=20	=20	=20	=20	=20	=20	=20	=20	=20	=20	=20	=20	=20	=20	=20	=20	=20	=20
16AA#X/LL	6	.	16cc#KL 16f#/	.	16ee\LL	.	4F#\	ti-	4c#\yy	ti-	.	4a#X\	ti-	.	4ee\	ti-	.	1r	1r
16C#/	.	.	8cc# 8f#/	.	16ccc#\	.	.	.	.	.	.	.	.	.	.	.	.	.	.
16F#/	.	.	.	.	16aa#X\	.	.	.	.	.	.	.	.	.	.	.	.	.	.
16C#/JJ	.	.	8cc# 8f#/	.	16ff#\JJ	.	.	.	.	.	.	.	.	.	.	.	.	.	.
16AA#/LL	6 5	.	.	.	4ee\	.	16F#\	-men-	16c#\yy	-men-	.	16a#\	-men-	.	16ee\	-men-	.	.	.
16C#/	.	.	8cc# 8f#/	.	.	.	16F#\	-ti-	16c#\yy	-ti-	.	16a#\	-ti-	.	16ee\	-ti-	.	.	.
16F#/	.	.	.	.	.	.	8F#\	-bus	8c#\yy	-bus	.	8a#\	-bus	.	8ee\	-bus	.	.	.
16C#/JJ	.	.	16cc#Jk 16f#/	.	.	.	.	.	.	.	.	.	.	.	.	.	.	.	.
*tremolo	*	*	*	*	*	*	*	*	*	*	*	*	*	*	*	*	*	*	*
8AA#/L	7	.	(16a#X\LL	.	(16cc#\LL	.	4F#\	e-	4c#\yy	e-	.	4a#\	e-	.	4ee\	e-	.	.	.
.	.	.	16cc#\	.	16ee\	.	.	.	.	.	.	.	.	.	.	.	.	.	.
8AA#/	6	.	16cc#\	.	16ee\	.	.	.	.	.	.	.	.	.	.	.	.	.	.
.	.	.	16ee\JJ)	.	16ggn\JJ)	.	.	.	.	.	.	.	.	.	.	.	.	.	.
!	!	!	!	!	!LO:LB:g=original	!	!	!	!	!	!	!	!	!	!	!	!	!	!
8AA#/	5	.	(16ee\LL	.	(16gg\LL	.	4F#\	-um	4c#\yy	-um	.	4a#\	-um	.	4ee\	-um	.	.	.
.	.	.	16dd\	.	16ff#\	.	.	.	.	.	.	.	.	.	.	.	.	.	.
8AA#/J	.	.	16dd\	.	16ff#\	.	.	.	.	.	.	.	.	.	.	.	.	.	.
.	.	.	16cc#\JJ)	.	16ee\JJ)	.	.	.	.	.	.	.	.	.	.	.	.	.	.
*Xtremolo	*	*	*	*	*	*	*	*	*	*	*	*	*	*	*	*	*	*	*
!	!	!	!	!	!	!	!	!	!	!	!	!	!	!	!LO:LB:g=original	!	!	!	!
=21	=21	=21	=21	=21	=21	=21	=21	=21	=21	=21	=21	=21	=21	=21	=21	=21	=21	=21	=21
!LO:TX:a:t=P:problem:mixed beam	!	!	!	!	!	!	!	!	!	!	!	!	!	!	!	!	!	!	!
16BB/LL	.	.	16f#/KL	.	16dd\KL	.	(4B\	e-	4d\	e-	.	4f#\	e-	.	(4dd\	e-	.	1r	1r
16B\	.	.	8f#/	.	8dd\	.	.	.	.	.	.	.	.	.	.	.	.	.	.
16B\	.	.	.	.	.	.	.	.	.	.	.	.	.	.	.	.	.	.	.
!	!	!	!	!	!LO:TX:a:t=P:problem:korekta z e na d	!	!	!	!	!	!	!	!	!	!	!	!	!	!
16B\JJ	.	.	16f#/Jk	.	16dd\Jk	.	.	.	.	.	.	.	.	.	.	.	.	.	.
16A\LL	+4r 2	.	16bKL 16f#/	.	16dd#X\KL	.	4A\	.	4B\	-um	.	4f#\	-um	.	4dd#X\	.	.	.	.
16A\	.	.	8b 8f#/	.	8dd#\	.	.	.	.	.	.	.	.	.	.	.	.	.	.
16A\	.	.	.	.	.	.	.	.	.	.	.	.	.	.	.	.	.	.	.
16A\JJ	.	.	16bJk 16f#/	.	16dd#\Jk	.	.	.	.	.	.	.	.	.	.	.	.	.	.
*tremolo	*	*	*	*	*	*	*2\right	*	*	*	*	*	*	*	*	*	*	*	*
!LO:TX:a:t=P:problem:cztery kropki nad nutą	!	!	!	!	!	!	!	!	!LO:LB:g=original	!	!	!	!	!	!	!	!	!	!
16G'\LL	6	.	16b\KL	.	16ee\KL	.	2G\)	.	4B\	e-	.	4g\	e-	.	4ee\)	.	.	.	.
16G'\	.	.	8b\	.	8ee\	.	.	.	.	.	.	.	.	.	.	.	.	.	.
16G'\	.	.	.	.	.	.	.	.	.	.	.	.	.	.	.	.	.	.	.
16G'\JJ	.	.	16b\Jk	.	16ee\Jk	.	.	.	.	.	.	.	.	.	.	.	.	.	.
!LO:TX:a:t=P:problem:cztery kropki nad nutą	!	!	!LO:LB:g=original	!	!	!	!	!	!	!	!	!	!	!	!	!	!	!	!
16G'\LL	6\	.	(16b\LL	.	16ee#X\KL	.	.	.	4B\	-um	.	4g\	-um	.	4ee#X\	-um	.	.	.
16G'\	.	.	16dd\)	.	8ee#\	.	.	.	.	.	.	.	.	.	.	.	.	.	.
16G'\	.	.	(16b\	.	.	.	.	.	.	.	.	.	.	.	.	.	.	.	.
16G'\JJ	.	.	16dd\JJ)	.	16ee#\Jk	.	.	.	.	.	.	.	.	.	.	.	.	.	.
*Xtremolo	*	*	*	*	*	*	*	*	*	*	*	*	*	*	*	*	*	*	*
!LO:LB:g=original	!	!	!	!	!	!	!	!	!	!	!	!	!	!	!	!	!	!	!
=22	=22	=22	=22	=22	=22	=22	=22	=22	=22	=22	=22	=22	=22	=22	=22	=22	=22	=22	=22
!	!	!LO:DY:b:t=piano	!	!LO:DY:b:t=pia	!	!LO:DY:b:t=piano	!	!	!LO:TX:a:t=Solo	!	!	!LO:TX:a:t=2	!	!	!LO:TX:a:t=8	!	!	!	!
8F#\L	#	p	(16a#X\LL	p	8ff#\	p	4F#\	-um	8f#\	De-	.	0r	.	.	00r	.	.	1r	1r
.	.	.	16cc#\	.	.	.	.	.	.	.	.	.	.	.	.	.	.	.	.
8F#\	.	.	16a#\	.	(8.cc#\L	.	.	.	8.c#\	-po-	.	.	.	.	.	.	.	.	.
.	.	.	16cc#\JJ)	.	.	.	.	.	.	.	.	.	.	.	.	.	.	.	.
8A#X\	.	.	(16f#/LL	.	.	.	4r	.	.	.	.	.	.	.	.	.	.	.	.
.	.	.	16cc#/	.	16dd#X\L	.	.	.	16d#X\	-su-	.	.	.	.	.	.	.	.	.
8A#\J	.	.	16f#/	.	16ee\	.	.	.	16e\	-it	.	.	.	.	.	.	.	.	.
.	.	.	16cc#/JJ)	.	16ff#\JJ)	.	.	.	16f#\	po-	.	.	.	.	.	.	.	.	.
8B\L	#	.	16b/KL	.	(16ee\LL	.	2r	.	(16e\LL	-ten-	.	.	.	.	.	.	.	.	.
.	.	.	8b/	.	16dd#\)	.	.	.	16d#X\JJ)	.	.	.	.	.	.	.	.	.	.
8F#\J	6_ 4_	.	.	.	16dd#'\	.	.	.	16d#\	-tes	.	.	.	.	.	.	.	.	.
.	.	.	16b/Jk	.	16dd#'\JJ	.	.	.	16d#\	de	.	.	.	.	.	.	.	.	.
16F#\LL	.	.	8b/L	.	8.dd#\L	.	.	.	8d#\	se-	.	.	.	.	.	.	.	.	.
16G#X\	.	.	.	.	.	.	.	.	.	.	.	.	.	.	.	.	.	.	.
16An\	.	.	8f#/J	.	.	.	.	.	(16c#\LL	-de	.	.	.	.	.	.	.	.	.
!	!	!	!	!	!	!	!	!	!LO:TX:b:i:t=V&colon; Su&colon;	!	!	!	!	!	!	!	!	!	!
16B\JJ	.	.	.	.	32cc#\LL	.	.	.	16d#\JJ)	.	.	.	.	.	.	.	.	.	.
.	X X	.	.	.	32dd#\JJJ	.	.	.	.	.	.	.	.	.	.	.	.	.	.
!	!	!	!	!	!LO:LB:g=original	!	!	!	!LO:PB:g=original	!	!	!	!	!	!	!	!	!	!
=23	=23	=23	=23	=23	=23	=23	=23	=23	=23	=23	=23	=23	=23	=23	=23	=23	=23	=23	=23
!	!	!	!	!	!	!	!LO:TX:a:t=14	!	!	!	!	!	!	!	!	!	!	!	!
8G#X\L	6_	.	16g#X/LL	.	8ee\L	.	00r	.	8e\	et	.	.	.	.	.	.	.	1r	1r
.	.	.	(16b/	.	.	.	.	.	.	.	.	.	.	.	.	.	.	.	.
8E\	.	.	16g#/	.	(8b\J	.	.	.	16B\	ex-	.	.	.	.	.	.	.	.	.
.	.	.	16b/JJ)	.	.	.	.	.	16B\	-ul-	.	.	.	.	.	.	.	.	.
8E\	.	.	16g#/LL	.	16b\LL	.	.	.	16B\LL	-ta-	.	.	.	.	.	.	.	.	.
.	.	.	(16b/	.	16cc#\)	.	.	.	16c#\JJ	.	.	.	.	.	.	.	.	.	.
8E\J	.	.	16g#/	.	16ddn\	.	.	.	16dn\LL	-vit	.	.	.	.	.	.	.	.	.
.	X	.	16b/JJ)	.	16ee\JJ	.	.	.	16e\JJ	.	.	.	.	.	.	.	.	.	.
8A\L	.	.	(16b/LL	.	(16dd\LL	.	.	.	8.c#\	hu-	.	.	.	.	.	.	.	.	.
.	.	.	16a/)	.	16cc#\	.	.	.	.	.	.	.	.	.	.	.	.	.	.
8E\J	6_ 4_	.	16a'/	.	16cc#'\)	.	.	.	.	.	.	.	.	.	.	.	.	.	.
.	.	.	16a'/JJ	.	16cc#'\JJ	.	.	.	16c#\	-mi-	.	.	.	.	.	.	.	.	.
16E\LL	.	.	8a/L	.	8.cc#\L	.	.	.	4c#\	-les	.	.	.	.	.	.	.	.	.
16F#\	.	.	.	.	.	.	.	.	.	.	.	.	.	.	.	.	.	.	.
16Gn\	.	.	8e/J	.	.	.	.	.	.	.	.	.	.	.	.	.	.	.	.
16A\JJ	.	.	.	.	32b\LL	.	.	.	.	.	.	.	.	.	.	.	.	.	.
.	X X	.	.	.	32cc#\JJJ	.	.	.	.	.	.	.	.	.	.	.	.	.	.
!	!	!	!LO:LB:g=original	!	!	!	!	!	!	!	!	!	!	!	!	!	!	!	!
=24	=24	=24	=24	=24	=24	=24	=24	=24	=24	=24	=24	=24	=24	=24	=24	=24	=24	=24	=24
!	!	!	!	!	!	!	!	!	!LO:TX:a:t=13	!	!	!LO:TX:a:i:t=Solo.	!	!	!	!	!	!	!
8F#\L	6	.	8f#/	.	8dd\	.	.	.	00r	.	.	4f#\	E-	.	.	.	.	1r	1r
8D\J	.	.	4a 4d/	.	(8.ff#\L	.	.	.	.	.	.	.	.	.	.	.	.	.	.
8Cn/L	4 2	.	.	.	.	.	.	.	.	.	.	16f#\LL	-su-	.	.	.	.	.	.
.	.	.	.	.	16gg\L	.	.	.	.	.	.	16g\JJ	.	.	.	.	.	.	.
8C/J	.	.	8a 8d/	.	16aa\)	.	.	.	.	.	.	16a\LL	-ri-	.	.	.	.	.	.
.	.	.	.	.	16ff#\JJ	.	.	.	.	.	.	16f#\JJ	.	.	.	.	.	.	.
*tremolo	*	*	*	*	*	*	*	*	*	*	*	*	*	*	*	*	*	*	*
8BB/L	6	.	16d/LL	.	8gg\	.	.	.	.	.	.	8g\	-en-	.	.	.	.	.	.
.	.	.	16b/	.	.	.	.	.	.	.	.	.	.	.	.	.	.	.	.
!	!	!	!	!	!	!	!	!	!	!	!	!LO:LB:g=original	!	!	!	!	!	!	!
8BB/	.	.	16g/	.	8.dd\L	.	.	.	.	.	.	16d\	-tes	.	.	.	.	.	.
.	.	.	16b/JJ	.	.	.	.	.	.	.	.	16d\	im-	.	.	.	.	.	.
*	*	*	*rep	*	*	*	*	*	*	*	*	*	*	*	*	*	*	*	*
8BB/	.	.	16d/LL	.	.	.	.	.	.	.	.	8g\	-ple-	.	.	.	.	.	.
.	.	.	16b/	.	16gg\L	.	.	.	.	.	.	.	.	.	.	.	.	.	.
8BB/J	.	.	16g/	.	16bb\	.	.	.	.	.	.	8b\	-vit	.	.	.	.	.	.
.	.	.	16b/JJ	.	16gg\JJ	.	.	.	.	.	.	.	.	.	.	.	.	.	.
*	*	*	*Xrep	*	*	*	*	*	*	*	*	*	*	*	*	*	*	*	*
=25	=25	=25	=25	=25	=25	=25	=25	=25	=25	=25	=25	=25	=25	=25	=25	=25	=25	=25	=25
!	!	!	!LO:TX:a:t=P:problem:mixed beam	!	!	!	!	!	!	!	!	!	!	!	!	!	!	!	!
8F#\L	6	.	16d/LL	.	8aa\	.	.	.	.	.	.	16a\LL	bo-	.	.	.	.	1r	1r
.	.	.	16dd\	.	.	.	.	.	.	.	.	16f#\JJ	.	.	.	.	.	.	.
8F#\	.	.	16a\	.	8.dd\L	.	.	.	.	.	.	16d\	-nis	.	.	.	.	.	.
.	.	.	16dd\JJ	.	.	.	.	.	.	.	.	16d\	im-	.	.	.	.	.	.
!	!	!	!LO:TX:a:t=P:problem:mixed beam	!	!	!	!	!	!	!	!	!	!	!	!	!	!	!	!
8F#\	.	.	16d/LL	.	.	.	.	.	.	.	.	8a\	-ple-	.	.	.	.	.	.
.	.	.	16dd\	.	(16aa\L	.	.	.	.	.	.	.	.	.	.	.	.	.	.
8F#\J	.	.	16a\	.	16cccn\	.	.	.	.	.	.	8ccn\	-vit	.	.	.	.	.	.
.	.	.	16dd\JJ	.	16aa\JJ)	.	.	.	.	.	.	.	.	.	.	.	.	.	.
*Xtremolo	*	*	*	*	*	*	*	*	*	*	*	*	*	*	*	*	*	*	*
!	!	!	!	!	!LO:LB:g=original	!	!	!	!	!	!	!	!	!	!	!	!	!	!
8G\L	.	.	8dd\L	.	8bb\L	.	.	.	.	.	.	8b\L	bo-	.	.	.	.	.	.
8B\	.	.	8dd\	.	8ddd\J	.	.	.	.	.	.	8dd\J	.	.	.	.	.	.	.
8cn\	.	.	8ee\	.	(16cccn\LL	.	.	.	.	.	.	(16ccn\LL	.	.	.	.	.	.	.
.	.	.	.	.	16bb\	.	.	.	.	.	.	16b\	.	.	.	.	.	.	.
8c#X\J	6 5	.	8ee\J	.	16aa\	.	.	.	.	.	.	16a\	.	.	.	.	.	.	.
.	.	.	.	.	16gg\JJ)	.	.	.	.	.	.	16g\JJ	.	.	.	.	.	.	.
!LO:LB:g=original	!	!	!	!	!	!	!	!	!	!	!	!	!	!	!	!	!	!	!
=26	=26	=26	=26	=26	=26	=26	=26	=26	=26	=26	=26	=26	=26	=26	=26	=26	=26	=26	=26
16d\LL	.	.	16b/LL	.	4gg\	.	.	.	.	.	.	(4g\)	.	.	00r	.	.	1r	1r
16c#X\	.	.	16d/	.	.	.	.	.	.	.	.	.	.	.	.	.	.	.	.
16d\	.	.	16b/	.	.	.	.	.	.	.	.	.	.	.	.	.	.	.	.
16c#\JJ	.	.	16d/JJ	.	.	.	.	.	.	.	.	.	.	.	.	.	.	.	.
16d\LL	.	.	(16a\LL	.	4ff#\	.	.	.	.	.	.	4f#\)	-nis	.	.	.	.	.	.
16cn\	.	.	16ee\	.	.	.	.	.	.	.	.	.	.	.	.	.	.	.	.
16B\	.	.	16dd\	.	.	.	.	.	.	.	.	.	.	.	.	.	.	.	.
16A\JJ	.	.	16ccn\JJ)	.	.	.	.	.	.	.	.	.	.	.	.	.	.	.	.
8G\L	.	.	8bL 8d/	.	(16gg\LL	.	.	.	.	.	.	2r	.	.	.	.	.	.	.
.	.	.	.	.	16dd\	.	.	.	.	.	.	.	.	.	.	.	.	.	.
8G\	.	.	8b 8d/	.	16gg\	.	.	.	.	.	.	.	.	.	.	.	.	.	.
.	.	.	.	.	16bb\JJ)	.	.	.	.	.	.	.	.	.	.	.	.	.	.
8D\	.	.	8a 8d/	.	(16aa\LL	.	.	.	.	.	.	.	.	.	.	.	.	.	.
.	.	.	.	.	16cccn\	.	.	.	.	.	.	.	.	.	.	.	.	.	.
8D\J	.	.	8aJ 8d/	.	16aa\	.	.	.	.	.	.	.	.	.	.	.	.	.	.
.	.	.	.	.	16ff#\JJ)	.	.	.	.	.	.	.	.	.	.	.	.	.	.
!	!	!	!LO:LB:g=original	!	!	!	!	!	!	!	!	!	!	!	!	!	!	!	!
=27	=27	=27	=27	=27	=27	=27	=27	=27	=27	=27	=27	=27	=27	=27	=27	=27	=27	=27	=27
*tremolo	*	*	*	*	*	*	*	*	*	*	*	*	*	*	*	*	*	*	*
8G\L	.	.	16b\LL	.	8gg\	.	00r	.	.	.	.	2r	.	.	.	.	.	1r	1r
.	.	.	16dd\	.	.	.	.	.	.	.	.	.	.	.	.	.	.	.	.
8G\	.	.	16b\	.	8.dd\L	.	.	.	.	.	.	.	.	.	.	.	.	.	.
.	.	.	16dd\JJ	.	.	.	.	.	.	.	.	.	.	.	.	.	.	.	.
*	*	*	*rep	*	*	*	*	*	*	*	*	*	*	*	*	*	*	*	*
8G\	.	.	16b\LL	.	.	.	.	.	.	.	.	.	.	.	.	.	.	.	.
.	.	.	16dd\	.	(16bb\L	.	.	.	.	.	.	.	.	.	.	.	.	.	.
8G\J	.	.	16b\	.	16aa\	.	.	.	.	.	.	.	.	.	.	.	.	.	.
.	.	.	16dd\JJ	.	16gg\JJ	.	.	.	.	.	.	.	.	.	.	.	.	.	.
*	*	*	*Xrep	*	*	*	*	*	*	*	*	*	*	*	*	*	*	*	*
8F#\L	6	.	16a\LL	.	8aa\)	.	.	.	.	.	.	4r	.	.	.	.	.	.	.
.	.	.	16dd\	.	.	.	.	.	.	.	.	.	.	.	.	.	.	.	.
8F#\	.	.	16a\	.	8.dd\L	.	.	.	.	.	.	.	.	.	.	.	.	.	.
.	.	.	16dd\JJ	.	.	.	.	.	.	.	.	.	.	.	.	.	.	.	.
*	*	*	*rep	*	*	*	*	*	*	*	*	*	*	*	*	*	*	*	*
8F#\	.	.	16a\LL	.	.	.	.	.	.	.	.	8r	.	.	.	.	.	.	.
.	.	.	16dd\	.	(16cccn\L	.	.	.	.	.	.	.	.	.	.	.	.	.	.
8F#\J	.	.	16a\	.	16bb\	.	.	.	.	.	.	8a\	et	.	.	.	.	.	.
.	.	.	16dd\JJ	.	16aa\JJ)	.	.	.	.	.	.	.	.	.	.	.	.	.	.
*	*	*	*Xrep	*	*	*	*	*	*	*	*	*	*	*	*	*	*	*	*
!	!	!	!	!	!LO:LB:g=original	!	!	!	!	!	!	!LO:LB:g=original	!	!	!	!	!	!	!
=28	=28	=28	=28	=28	=28	=28	=28	=28	=28	=28	=28	=28	=28	=28	=28	=28	=28	=28	=28
*4\right	*	*	*	*	*	*	*	*	*	*	*	*	*	*	*	*	*	*	*
!	!	!	!	!	!	!LO:DY:b:t=piano.	!	!	!	!	!	!	!	!	!	!	!	!	!
4G\	.	.	4b 4d/	.	8bb\L	p	.	.	00r	.	.	16b\	di-	.	.	.	.	1r	1r
.	.	.	.	.	.	.	.	.	.	.	.	16b\	-vi-	.	.	.	.	.	.
.	.	.	.	.	32gg\LL	.	.	.	.	.	.	16g\	-tes	.	.	.	.	.	.
.	.	.	.	.	(32aa\	.	.	.	.	.	.	.	.	.	.	.	.	.	.
.	.	.	.	.	32bb\	.	.	.	.	.	.	16g\	di-	.	.	.	.	.	.
.	.	.	.	.	32ccc#\JJJ)	.	.	.	.	.	.	.	.	.	.	.	.	.	.
4r	.	.	4r	.	8ddd\L	.	.	.	.	.	.	8dd\	-mi-	.	.	.	.	.	.
.	.	.	.	.	8bb\J	.	.	.	.	.	.	16b\	-sit	.	.	.	.	.	.
.	.	.	.	.	.	.	.	.	.	.	.	16b\	in-	.	.	.	.	.	.
8B\L	.	.	8dd`\L	.	(4gg\	.	.	.	.	.	.	(4g\	-a-	.	.	.	.	.	.
32G\LL	.	.	(32b\LL	.	.	.	.	.	.	.	.	.	.	.	.	.	.	.	.
32A\	.	.	32ccn\	.	.	.	.	.	.	.	.	.	.	.	.	.	.	.	.
32B\	.	.	32dd\	.	.	.	.	.	.	.	.	.	.	.	.	.	.	.	.
32cn\JJJ	.	.	32ee\JJJ)	.	.	.	.	.	.	.	.	.	.	.	.	.	.	.	.
8d\L	n3	.	8ffn\L	.	4ffn\)	.	.	.	.	.	.	4fn\)	.	.	.	.	.	.	.
8B\J	.	.	8dd\J	.	.	.	.	.	.	.	.	.	.	.	.	.	.	.	.
=29	=29	=29	=29	=29	=29	=29	=29	=29	=29	=29	=29	=29	=29	=29	=29	=29	=29	=29	=29
!	!	!	!	!	!	!LO:DY:b:t=forte	!	!	!	!	!	!	!	!	!	!	!	!	!
8cn\L	.	.	(16ccn\LL	.	8ee`\L	f	.	.	.	.	.	4e\	-nes	.	.	.	.	1r	1r
.	.	.	16g\JJ)	.	.	.	.	.	.	.	.	.	.	.	.	.	.	.	.
8c\	.	.	(16dd\LL	.	(32ee\LL	.	.	.	.	.	.	.	.	.	.	.	.	.	.
.	.	.	.	.	32gg\	.	.	.	.	.	.	.	.	.	.	.	.	.	.
.	.	.	16g\JJ)	.	32aa\	.	.	.	.	.	.	.	.	.	.	.	.	.	.
.	.	.	.	.	32bb\JJJ)	.	.	.	.	.	.	.	.	.	.	.	.	.	.
8c\	.	.	(16ee\LL	.	8cccn\L	.	.	.	.	.	.	4r	.	.	.	.	.	.	.
.	.	.	16cc\)	.	.	.	.	.	.	.	.	.	.	.	.	.	.	.	.
8c\J	.	.	(16ffn\	.	8aa\J	.	.	.	.	.	.	.	.	.	.	.	.	.	.
*Xtremolo	*	*	*	*	*	*	*	*	*	*	*	*	*	*	*	*	*	*	*
.	.	.	16cc\JJ)	.	.	.	.	.	.	.	.	.	.	.	.	.	.	.	.
8B\L	6	.	8dd`\L	.	(4gg\	.	.	.	.	.	.	2r	.	.	.	.	.	.	.
(32G\LL	.	.	(32b\LL	.	.	.	.	.	.	.	.	.	.	.	.	.	.	.	.
32A\	.	.	32cc\	.	.	.	.	.	.	.	.	.	.	.	.	.	.	.	.
32B\	.	.	32dd\	.	.	.	.	.	.	.	.	.	.	.	.	.	.	.	.
32cn\JJJ)	.	.	32ee\JJJ)	.	.	.	.	.	.	.	.	.	.	.	.	.	.	.	.
8d\L	n3_	.	8ffn\L	.	4ffn\)	.	.	.	.	.	.	.	.	.	.	.	.	.	.
8B\J	X	.	8dd\J	.	.	.	.	.	.	.	.	.	.	.	.	.	.	.	.
!LO:LB:g=original	!	!	!LO:LB:g=original	!	!	!	!	!	!	!	!	!	!	!	!	!	!	!	!
=30	=30	=30	=30	=30	=30	=30	=30	=30	=30	=30	=30	=30	=30	=30	=30	=30	=30	=30	=30
!	!	!LO:DY:b:t=pia	!	!	!	!LO:DY:b:t=piano	!	!	!	!	!	!	!	!	!LO:TX:a:i:t=Solo	!	!	!	!
8cn\	.	p	(16cc#\LL	.	(16ee\LL	p	.	.	.	.	.	16e\LL	si-	.	16ccn\LL	si-	.	1r	1r
!	!	!	!	!LO:DY:b:t=pia	!	!	!	!	!	!	!	!	!	!	!	!	!	!	!
.	.	.	16dd\	p	16ffn\	.	.	.	.	.	.	16fn\	.	.	16dd\	.	.	.	.
8r	.	.	16ee\	.	16gg\	.	.	.	.	.	.	16g\	.	.	16ee\	.	.	.	.
.	.	.	16ffn\JJ)	.	16aa\JJ	.	.	.	.	.	.	16a\JJ	.	.	16ffn\JJ	.	.	.	.
16c\LL	.	.	(16ee\LL	.	8gg\)	.	.	.	.	.	.	8g\	-cut.	.	8ee\	-cut	.	.	.
16B\	.	.	16ff\	.	.	.	.	.	.	.	.	.	.	.	.	.	.	.	.
16c\	.	.	16ee\	.	8r	.	.	.	.	.	.	8r	.	.	8r	.	.	.	.
16B\JJ	.	.	16ff\JJ)	.	.	.	.	.	.	.	.	.	.	.	.	.	.	.	.
!	!	!	!	!	!LO:LB:g=original	!	!	!	!	!	!	!	!	!	!	!	!	!	!
8c\	.	.	8ee\	.	(16eee\LL	.	.	.	.	.	.	4r	.	.	4r	.	.	.	.
.	.	.	.	.	16cccn\	.	.	.	.	.	.	.	.	.	.	.	.	.	.
8r	.	.	8r	.	16bb\	.	.	.	.	.	.	.	.	.	.	.	.	.	.
.	.	.	.	.	16aa\JJ)	.	.	.	.	.	.	.	.	.	.	.	.	.	.
16Cn/LL	3	.	(16e/LL	.	8gg`\	.	.	.	.	.	.	8r	.	.	8r	.	.	.	.
16E/	3	.	16g/)	.	.	.	.	.	.	.	.	.	.	.	.	.	.	.	.
16D/	n3	.	(16fn/	.	8r	.	.	.	.	.	.	16e\LL	lo-	.	16cc\LL	lo-	.	.	.
16C/JJ	3	.	16e/JJ)	.	.	.	.	.	.	.	.	16g\JJ	.	.	16ee\JJ	.	.	.	.
!	!	!	!	!	!	!	!	!	!	!	!	!LO:LB:g=original	!	!	!	!	!	!	!
=31	=31	=31	=31	=31	=31	=31	=31	=31	=31	=31	=31	=31	=31	=31	=31	=31	=31	=31	=31
!LO:TX:a:t=P:problem:mixed beam	!	!	!	!	!	!	!	!	!	!	!	!	!	!	!	!	!	!	!
8G\L	.	.	(16dd\LL	.	(16ffn\LL	.	00r	.	.	.	.	16fn\LL	-cu-	.	16dd\LL	-cu-	.	1r	1r
.	.	.	16ccn\	.	16ee\	.	.	.	.	.	.	16e\JJ	.	.	16ccn\JJ	.	.	.	.
8GG/J	.	.	16b\	.	16ff\	.	.	.	.	.	.	16f\LL	-tus	.	16dd\LL	-tus	.	.	.
.	.	.	16cc\JJ)	.	16gg\JJ)	.	.	.	.	.	.	16g\JJ	.	.	16ee\JJ	.	.	.	.
16B\LL	4 n3	.	(16dd\LL	.	8ff`\	.	.	.	.	.	.	8f\	est.	.	8dd\	eſt	.	.	.
16G\	.	.	16b\)	.	.	.	.	.	.	.	.	.	.	.	.	.	.	.	.
16B\	.	.	(16dd\	.	8r	.	.	.	.	.	.	8r	.	.	8r	.	.	.	.
16G\JJ	.	.	16b\JJ)	.	.	.	.	.	.	.	.	.	.	.	.	.	.	.	.
8B\	.	.	8ffn\L	.	16ddd\LL	.	.	.	.	.	.	4r	.	.	4r	.	.	.	.
.	.	.	.	.	(16bb\	.	.	.	.	.	.	.	.	.	.	.	.	.	.
8r	.	.	8dd\J	.	16gg\	.	.	.	.	.	.	.	.	.	.	.	.	.	.
.	.	.	.	.	16ffn\JJ	.	.	.	.	.	.	.	.	.	.	.	.	.	.
!	!	!	!LO:SIC:s=16fn:v	!	!	!	!	!	!	!	!	!	!	!	!	!	!	!	!
16d\LL	n3	.	(16f#/LL	.	8ff\)	.	.	.	.	.	.	8r	.	.	8r	.	.	.	.
16B\	3	.	16d/	.	.	.	.	.	.	.	.	.	.	.	.	.	.	.	.
16A\	3	.	16cn/	.	8r	.	.	.	.	.	.	8f\	ad	.	8dd\	ad	.	.	.
16G\JJ	3	.	16B/JJ)	.	.	.	.	.	.	.	.	.	.	.	.	.	.	.	.
!	!	!	!	!	!	!	!	!	!	!	!	!	!	!	!LO:LB:g=original	!	!	!	!
=32	=32	=32	=32	=32	=32	=32	=32	=32	=32	=32	=32	=32	=32	=32	=32	=32	=32	=32	=32
8c#\L	.	.	16g/KL	.	(16ee\LL	.	.	.	00r	.	.	(16e\LL	pa-	.	16ccn\LL	Pa-	.	1r	1r
.	.	.	8g/	.	16ff#X\	.	.	.	.	.	.	16fn\JJ)	.	.	16dd\JJ	.	.	.	.
8c#\J	.	.	.	.	16gg\)	.	.	.	.	.	.	(16g\LL	-tres	.	(16ee\LL	-tres	.	.	.
.	.	.	16g/Jk	.	16ee\JJ	.	.	.	.	.	.	16e\JJ)	.	.	16cc\JJ)	.	.	.	.
8G\L	.	.	16a#X/LL	.	(16cc#X\LL	.	.	.	.	.	.	(16c#X/LL	nos-	.	(16a#X\LL	no-	.	.	.
.	.	.	16b/J	.	16dd\J)	.	.	.	.	.	.	16d/JJ)	.	.	16b\JJ)	.	.	.	.
8G\J	.	.	8b/J	.	8dd`\J	.	.	.	.	.	.	8d/	-tros	.	8b\	-ſtros	.	.	.
!	!	!	!LO:LB:g=original	!	!	!	!	!	!	!	!	!	!	!	!	!	!	!	!
8F#X\L	6 5	.	16a#\LL	.	(16ccn\LL	.	.	.	.	.	.	(16a\LL	pa-	.	16cc\LL	Pa-	.	.	.
.	.	.	16b\	.	16dd\	.	.	.	.	.	.	16b\JJ)	.	.	16dd\JJ	.	.	.	.
8F#\	.	.	16ccn\	.	16ee\	.	.	.	.	.	.	(16ccn\LL	-tres	.	(16ee\LL	-tres	.	.	.
.	.	.	16a#\JJ	.	16cc\JJ)	.	.	.	.	.	.	16a\JJ)	.	.	16cc\JJ)	.	.	.	.
8G\	.	.	16d/KL	.	(16a#X/LL	.	.	.	.	.	.	16f\LL	nos-	.	(16a#X\LL	no-	.	.	.
.	.	.	8d/	.	16b/J)	.	.	.	.	.	.	16g\JJ	.	.	16b\JJ)	.	.	.	.
8G\J	.	.	.	.	8b`/J	.	.	.	.	.	.	8g\	-tros	.	8b\	-ſtros	.	.	.
.	.	.	16d/Jk	.	.	.	.	.	.	.	.	.	.	.	.	.	.	.	.
!LO:LB:g=original	!	!	!	!	!LO:PB:g=original	!	!	!	!	!	!	!LO:LB:g=original	!	!	!	!	!	!	!
=33	=33	=33	=33	=33	=33	=33	=33	=33	=33	=33	=33	=33	=33	=33	=33	=33	=33	=33	=33
!	!	!	!	!	!	!LO:DY:b:t=forte.	!	!	!	!	!	!LO:TX:a:t=4	!	!	!LO:TX:a:t=4	!	!	!	!
8C#/L	.	.	8e/	.	16a\KL	f	.	.	.	.	.	00r	.	.	00r	.	.	1r	1r
!	!	!	!	!LO:DY:b:t=for	!	!	!	!	!	!	!	!	!	!	!	!	!	!	!
.	.	.	.	f	8ee\	.	.	.	.	.	.	.	.	.	.	.	.	.	.
8BB/	6	.	4g/	.	.	.	.	.	.	.	.	.	.	.	.	.	.	.	.
.	.	.	.	.	16dd\Jk	.	.	.	.	.	.	.	.	.	.	.	.	.	.
8C#/	.	.	.	.	(16cc#\LL	.	.	.	.	.	.	.	.	.	.	.	.	.	.
.	6	.	.	.	16b\	.	.	.	.	.	.	.	.	.	.	.	.	.	.
8C#X/J	5	.	8e/	.	16a\	.	.	.	.	.	.	.	.	.	.	.	.	.	.
.	.	.	.	.	16g\JJ)	.	.	.	.	.	.	.	.	.	.	.	.	.	.
!	!	!	!	!	!LO:TX:a:t=P:problem:mixed beam	!	!	!	!	!	!	!	!	!	!	!	!	!	!
8D\L	.	.	8aL 8f#/	.	(>16f#/KL	.	.	.	.	.	.	.	.	.	.	.	.	.	.
.	.	.	.	.	8aa\	.	.	.	.	.	.	.	.	.	.	.	.	.	.
8D\	.	.	8f#/	.	.	.	.	.	.	.	.	.	.	.	.	.	.	.	.
.	.	.	.	.	16gg\Jk)	.	.	.	.	.	.	.	.	.	.	.	.	.	.
8E\	.	.	8g/	.	16ff#\LL	.	.	.	.	.	.	.	.	.	.	.	.	.	.
.	.	.	.	.	16ee\	.	.	.	.	.	.	.	.	.	.	.	.	.	.
8F#\J	.	.	8a/J	.	16dd\	.	.	.	.	.	.	.	.	.	.	.	.	.	.
.	.	.	.	.	16ccn\JJ	.	.	.	.	.	.	.	.	.	.	.	.	.	.
=34	=34	=34	=34	=34	=34	=34	=34	=34	=34	=34	=34	=34	=34	=34	=34	=34	=34	=34	=34
*	*	*	*tremolo	*	*	*	*	*	*	*	*	*	*	*	*	*	*	*	*
8G\L	.	.	8bL 8d/	.	16dd\KL	.	.	.	.	.	.	.	.	.	.	.	.	1r	1r
.	.	.	.	.	8bb\	.	.	.	.	.	.	.	.	.	.	.	.	.	.
8A\	.	.	8b 8d/	.	.	.	.	.	.	.	.	.	.	.	.	.	.	.	.
.	.	.	.	.	16aa\Jk	.	.	.	.	.	.	.	.	.	.	.	.	.	.
8B\	.	.	8b 8d/	.	16gg\LL	.	.	.	.	.	.	.	.	.	.	.	.	.	.
.	.	.	.	.	16ff#\	.	.	.	.	.	.	.	.	.	.	.	.	.	.
8G\J	.	.	8bJ 8d/	.	16ee\	.	.	.	.	.	.	.	.	.	.	.	.	.	.
.	.	.	.	.	16dd\JJ	.	.	.	.	.	.	.	.	.	.	.	.	.	.
8A\L	.	.	8aL 8d/	.	16ccn\KL	.	.	.	.	.	.	.	.	.	.	.	.	.	.
.	.	.	.	.	8aa\	.	.	.	.	.	.	.	.	.	.	.	.	.	.
8F#\	.	.	8a 8d/	.	.	.	.	.	.	.	.	.	.	.	.	.	.	.	.
.	.	.	.	.	16gg\Jk	.	.	.	.	.	.	.	.	.	.	.	.	.	.
8D\	.	.	8a 8d/	.	16ff#\LL	.	.	.	.	.	.	.	.	.	.	.	.	.	.
.	.	.	.	.	16ee\	.	.	.	.	.	.	.	.	.	.	.	.	.	.
8F#\J	.	.	8aJ 8d/	.	16dd\	.	.	.	.	.	.	.	.	.	.	.	.	.	.
.	.	.	.	.	16cc\JJ	.	.	.	.	.	.	.	.	.	.	.	.	.	.
*	*	*	*Xtremolo	*	*	*	*	*	*	*	*	*	*	*	*	*	*	*	*
!	!	!	!	!	!LO:LB:g=original	!	!	!	!	!	!	!	!	!	!	!	!	!	!
=35	=35	=35	=35	=35	=35	=35	=35	=35	=35	=35	=35	=35	=35	=35	=35	=35	=35	=35	=35
4G\	.	.	8d/L	.	16b\KL	.	0r	.	.	.	.	.	.	.	.	.	.	1r	1r
.	.	.	.	.	8ffn\	.	.	.	.	.	.	.	.	.	.	.	.	.	.
.	.	.	8d/	.	.	.	.	.	.	.	.	.	.	.	.	.	.	.	.
.	.	.	.	.	16ee\Jk	.	.	.	.	.	.	.	.	.	.	.	.	.	.
8D\L	8 n	.	8fn/	.	(16dd\LL	.	.	.	.	.	.	.	.	.	.	.	.	.	.
.	.	.	.	.	16ccn\	.	.	.	.	.	.	.	.	.	.	.	.	.	.
8D#X\J	6 5	.	8f#X/J	.	16b\	.	.	.	.	.	.	.	.	.	.	.	.	.	.
.	.	.	.	.	16a\JJ)	.	.	.	.	.	.	.	.	.	.	.	.	.	.
8E\L	#	.	8B/L	.	16g#X\LL	.	.	.	.	.	.	.	.	.	.	.	.	.	.
.	.	.	.	.	(16a\	.	.	.	.	.	.	.	.	.	.	.	.	.	.
8E\	.	.	8B/	.	16b\	.	.	.	.	.	.	.	.	.	.	.	.	.	.
.	.	.	.	.	16cc\JJ	.	.	.	.	.	.	.	.	.	.	.	.	.	.
8G#X\	6	.	8e/	.	(16dd\LL)	.	.	.	.	.	.	.	.	.	.	.	.	.	.
.	.	.	.	.	16b\	.	.	.	.	.	.	.	.	.	.	.	.	.	.
8G#\J	.	.	8e/J	.	16ee\)	.	.	.	.	.	.	.	.	.	.	.	.	.	.
.	.	.	.	.	16dd\JJ	.	.	.	.	.	.	.	.	.	.	.	.	.	.
!	!	!	!LO:LB:g=original	!	!	!	!	!	!	!	!	!	!	!	!	!	!	!	!
=36	=36	=36	=36	=36	=36	=36	=36	=36	=36	=36	=36	=36	=36	=36	=36	=36	=36	=36	=36
4A\	n	.	8e/	.	16ccn\KL	.	.	.	1r	.	.	.	.	.	.	.	.	1r	1r
.	.	.	.	.	8ee\	.	.	.	.	.	.	.	.	.	.	.	.	.	.
.	.	.	4e/	.	.	.	.	.	.	.	.	.	.	.	.	.	.	.	.
.	.	.	.	.	16dd\Jk	.	.	.	.	.	.	.	.	.	.	.	.	.	.
8Cn/L	.	.	.	.	16cc\LL	.	.	.	.	.	.	.	.	.	.	.	.	.	.
.	6	.	.	.	16b\	.	.	.	.	.	.	.	.	.	.	.	.	.	.
8C#X/J	5	.	8e/	.	16a\	.	.	.	.	.	.	.	.	.	.	.	.	.	.
.	.	.	.	.	16g\JJ	.	.	.	.	.	.	.	.	.	.	.	.	.	.
8D\L	.	.	8A/L	.	16f#/LL	.	.	.	.	.	.	.	.	.	.	.	.	.	.
.	.	.	.	.	16g/	.	.	.	.	.	.	.	.	.	.	.	.	.	.
8D\	.	.	16f#/L	.	16a/	.	.	.	.	.	.	.	.	.	.	.	.	.	.
.	.	.	16g/JJ	.	16b/JJ	.	.	.	.	.	.	.	.	.	.	.	.	.	.
8F#\	.	.	16a/LL	.	16cc\LL	.	.	.	.	.	.	.	.	.	.	.	.	.	.
.	.	.	16f#/	.	16a\	.	.	.	.	.	.	.	.	.	.	.	.	.	.
8F#\J	.	.	16b/	.	16dd\	.	.	.	.	.	.	.	.	.	.	.	.	.	.
!	!	!	!	!	!	!	!	!	!	!	!	!LO:TX:b:i:t=Volti citisſime.	!	!	!	!	!	!	!
.	.	.	16a/JJ	.	16cc\JJ	.	.	.	.	.	.	.	.	.	.	.	.	.	.
!LO:LB:g=original	!	!	!	!	!	!	!LO:LB:g=original	!	!	!	!	!LO:PB:g=original	!	!	!	!	!	!	!
=37	=37	=37	=37	=37	=37	=37	=37	=37	=37	=37	=37	=37	=37	=37	=37	=37	=37	=37	=37
4G\	.	.	8bL 8d/	.	(16b\LL	.	8G\	A-	8cn\	A-	.	8g\	A-	.	8dd\	A-	.	1r	1r
.	.	.	.	.	16gg\	.	.	.	.	.	.	.	.	.	.	.	.	.	.
.	.	.	8bJ 8d/	.	16dd'\)	.	8G\	-bra-	8c\	-bra-	.	8g\	-bra-	.	8dd\	-bra-	.	.	.
.	.	.	.	.	16dd'\JJ	.	.	.	.	.	.	.	.	.	.	.	.	.	.
16B\LL	.	.	(16dd\LL	.	4dd\	.	8G\	-ham	8c\	-ham	.	8g\	-ham	.	8dd\	-ham	.	.	.
16G\	.	.	16b\	.	.	.	.	.	.	.	.	.	.	.	.	.	.	.	.
16B\	.	.	16dd\	.	.	.	8G\	et	8c\	et	.	8g\	et	.	8dd\	et	.	.	.
16G\JJ	.	.	16b\JJ)	.	.	.	.	.	.	.	.	.	.	.	.	.	.	.	.
!	!	!	!	!	!LO:LB:g=original	!	!	!	!LO:LB:g=original	!	!	!	!	!	!	!	!	!	!
4A\	4_ 3_	.	4ccn 4d/	.	16dd\LL	.	8A\	se-	8dn\	se-	.	8a\	se-	.	8dd\	se-	.	.	.
.	.	.	.	.	16aa\JJ	.	.	.	.	.	.	.	.	.	.	.	.	.	.
.	.	.	.	.	16dd'\LL	.	8D/	-mi-	8d\	-mi-	.	8a\	-mi-	.	8dd\	-mi-	.	.	.
.	.	.	.	.	16dd'\JJ	.	.	.	.	.	.	.	.	.	.	.	.	.	.
16A\LL	.	.	(16cc\LL	.	4dd\	.	4D/	-ni	4d\	-ni	.	4a\	-ni	.	4dd\	-ni	.	.	.
16D\	.	.	16a\	.	.	.	.	.	.	.	.	.	.	.	.	.	.	.	.
16A\	.	.	16cc\	.	.	.	.	.	.	.	.	.	.	.	.	.	.	.	.
16D\JJ	X X	.	16a\JJ)	.	.	.	.	.	.	.	.	.	.	.	.	.	.	.	.
!	!	!	!	!	!	!	!	!	!	!	!	!	!	!	!LO:LB:g=original	!	!	!	!
=38	=38	=38	=38	=38	=38	=38	=38	=38	=38	=38	=38	=38	=38	=38	=38	=38	=38	=38	=38
4G\	.	.	4b 4d/	.	(16dd\LL	.	4G\	e-	4c#\	e-	.	4g\	e-	.	4dd\	e-	.	1r	1r
.	.	.	.	.	16bb\JJ)	.	.	.	.	.	.	.	.	.	.	.	.	.	.
.	.	.	.	.	16dd'\LL	.	.	.	.	.	.	.	.	.	.	.	.	.	.
.	.	.	.	.	16dd'\JJ	.	.	.	.	.	.	.	.	.	.	.	.	.	.
16B\LL	.	.	(16dd\LL	.	4dd\	.	8G\	-jus	8c#\	-jus	.	8g\	-jus	.	8dd\	-jus	.	.	.
16G\	.	.	16b\	.	.	.	.	.	.	.	.	.	.	.	.	.	.	.	.
16B\	.	.	16dd\	.	.	.	8G\	in	8c#\	in	.	8g\	in	.	8dd\	in	.	.	.
16G\JJ	.	.	16b\JJ)	.	.	.	.	.	.	.	.	.	.	.	.	.	.	.	.
4A\	4_ 3_	.	4ccn 4d/	.	(16dd\LL	.	8A\	sae-	8dn\	Sae-	.	8a\	sae-	.	8dd\	sae-	.	.	.
.	.	.	.	.	16cccn\JJ)	.	.	.	.	.	.	.	.	.	.	.	.	.	.
.	.	.	.	.	16ff#X'\LL	.	8D/	-cu-	8d\	-cu-	.	8a\	-cu-	.	8dd\	-cu-	.	.	.
.	.	.	.	.	16ff#'\JJ	.	.	.	.	.	.	.	.	.	.	.	.	.	.
16A\LL	.	.	(16cc\LL	.	4ff# 4a\	.	4D/	-la.	4d\	-la	.	4a\	-la	.	4dd\	-la	.	.	.
16D\	.	.	16a\	.	.	.	.	.	.	.	.	.	.	.	.	.	.	.	.
16F#\	.	.	16cc\	.	.	.	.	.	.	.	.	.	.	.	.	.	.	.	.
16D\JJ	X X	.	16a\JJ)	.	.	.	.	.	.	.	.	.	.	.	.	.	.	.	.
!	!	!	!LO:LB:g=original	!	!	!	!	!	!	!	!	!	!	!	!	!	!	!	!
=39	=39	=39	=39	=39	=39	=39	=39	=39	=39	=39	=39	=39	=39	=39	=39	=39	=39	=39	=39
8G\L	.	.	8b 8d/	.	16ggLL 16b\	.	4r	.	4r	.	.	4r	.	.	4r	.	.	1r	1r
.	.	.	.	.	16bb\	.	.	.	.	.	.	.	.	.	.	.	.	.	.
8G\	.	.	4b 4d/	.	16aa\	.	.	.	.	.	.	.	.	.	.	.	.	.	.
.	.	.	.	.	16gg\JJ	.	.	.	.	.	.	.	.	.	.	.	.	.	.
8G\	.	.	.	.	(16ff#\LL	.	8r	.	8r	.	.	8r	.	.	8r	.	.	.	.
.	6	.	.	.	16ee\	.	.	.	.	.	.	.	.	.	.	.	.	.	.
8G#X\J	5	.	8b 8d/	.	16ee\	.	8G#X\	in	8d\	in	.	8b\	in	.	16ee\LL	in	.	.	.
.	.	.	.	.	16dd\JJ)	.	.	.	.	.	.	.	.	.	16dd\JJ	.	.	.	.
!	!	!	!	!	!	!	!LO:LB:g=original	!	!	!	!	!LO:LB:g=original	!	!	!	!	!	!	!
16A\LL	6_ 4_	.	8e/L	.	(4dd\	.	8A\	sae-	8d\	Sae-	.	8b\	sae-	.	8dd\	sae-	.	.	.
16G#\	.	.	.	.	.	.	.	.	.	.	.	.	.	.	.	.	.	.	.
16A\	.	.	8e/J	.	.	.	8AA/	-cu-	8d\	-cu-	.	8b\	-cu-	.	8dd\	-cu-	.	.	.
16G#\JJ	X X	.	.	.	.	.	.	.	.	.	.	.	.	.	.	.	.	.	.
16A\LL	.	.	16e`/LL	.	4cc#X\)	.	4AA/	-la	4e\	-la	.	4a\	-la	.	4cc#X\	-la	.	.	.
16Gn\	.	.	(16b/	.	.	.	.	.	.	.	.	.	.	.	.	.	.	.	.
16F#\	.	.	16a/	.	.	.	.	.	.	.	.	.	.	.	.	.	.	.	.
16E\JJ	.	.	16g/JJ)	.	.	.	.	.	.	.	.	.	.	.	.	.	.	.	.
!LO:LB:g=original	!	!	!	!	!LO:LB:g=original	!	!	!	!LO:LB:g=original	!	!	!	!	!	!	!	!	!	!LO:LB:g=original
=40	=40	=40	=40	=40	=40	=40	=40	=40	=40	=40	=40	=40	=40	=40	=40	=40	=40	=40	=40
!LO:TX:a:t=Tutti	!	!	!	!	!	!LO:DY:b:t=for	!	!	!	!	!	!	!	!	!	!	!	!	!
8D\L	.	.	8f#`/L	.	8dd`\L	f	8D/	Glo-	8A/	Glo-	.	8f#\	Glo-	.	8dd\	Glo-	.	8f#/	8dd\
8D\J	.	.	(32f#/LL	.	(32dd\LL	.	16D/	-ri-	16A/	-ri-	.	16f#\	-ri-	.	16dd\	-ri-	.	8r	8r
.	.	.	32e/	.	32cc#\	.	.	.	.	.	.	.	.	.	.	.	.	.	.
.	.	.	32f#/	.	32dd\	.	16D/	-a	16A/	-a	.	16g\	-a	.	16dd\	-a	.	.	.
.	.	.	32g/JJJ)	.	32ee\JJJ)	.	.	.	.	.	.	.	.	.	.	.	.	.	.
!	!	!	!	!	!LO:TX:a:t=P:problem:mixed beam	!	!	!	!	!	!	!	!	!	!LO:LB:g=original	!	!	!	!
16D\LL	.	.	16f#'/LL	.	16dd\LL	.	8D/	Pa-	8A/	Pa-	.	8f#\	Pa-	.	8dd\	Pa-	.	8f#/	8dd\
16D\	.	.	16d/	.	16d/	.	.	.	.	.	.	.	.	.	.	.	.	.	.
16F#\	.	.	16f#/	.	16f#/	.	8D/	-tri,	8A/	-tri	.	8f#\	-tri	.	8dd\	-tri	.	8r	8r
16A\JJ	.	.	16a/JJ	.	16a/JJ	.	.	.	.	.	.	.	.	.	.	.	.	.	.
8d\L	.	.	8f#`/L	.	8dd\L	.	2r	.	2r	.	.	16a\	Pa-	.	8dd\	Pa-	.	8r	8r
.	.	.	.	.	.	.	.	.	.	.	.	16g\	tri	.	.	.	.	.	.
8d\J	.	.	(32a/LL	.	(32ff#\LL	.	.	.	.	.	.	16f#\	et	.	16ff#\	-tri	.	8a/	16ff#\LL
.	.	.	32b/	.	32gg\	.	.	.	.	.	.	.	.	.	.	.	.	.	.
.	.	.	32a/	.	32ff#\	.	.	.	.	.	.	16f#\	fi-	.	16ee\	et	.	.	16ee\JJ
.	.	.	32g/JJJ)	.	32ee\JJJ)	.	.	.	.	.	.	.	.	.	.	.	.	.	.
16d\LL	.	.	(16g/LL	.	(16ee\LL	.	.	.	.	.	.	8f#\	-li-	.	16ee\	fi-	.	16a/LL	16ee\LL
16D\	.	.	16f#/J)	.	16dd\J)	.	.	.	.	.	.	.	.	.	16dd\	-li-	.	16f#/J	16dd\J
!	!	!	!	!	!	!	!	!	!	!	!	!LO:N:vis=4	!	!	!	!	!	!	!
16F#\	.	.	8f#`/J	.	8dd`\J	.	.	.	.	.	.	8f#\	-o	.	8dd\	-o	.	8f#/J	8dd\J
16A\JJ	.	.	.	.	.	.	.	.	.	.	.	.	.	.	.	.	.	.	.
=41	=41	=41	=41	=41	=41	=41	=41	=41	=41	=41	=41	=41	=41	=41	=41	=41	=41	=41	=41
!LO:TX:a:t=P:problem:takt zapisany repetycją	!	!	!	!	!	!	!	!	!	!	!	!	!	!	!	!	!	!	!
8D\Lyy	.	.	8dd`\L	.	8ff#`\L	.	8d\	pa-	8A/	et	.	8f#\	et	.	8dd\	et	.	8dd\	8ff#\
8D\Jyy	.	.	(32dd\LL	.	(32ff#\LL	.	16d\	-tri	8A/	Spi-	.	16f#\LL	Spi-	.	8dd\	Spi-	.	8r	8r
.	.	.	32cc#\	.	32ee\	.	.	.	.	.	.	.	.	.	.	.	.	.	.
.	.	.	32dd\	.	32ff#\	.	16d\	et	.	.	.	16e\JJ	.	.	.	.	.	.	.
.	.	.	32ee\JJJ)	.	32gg\JJJ)	.	.	.	.	.	.	.	.	.	.	.	.	.	.
!	!	!	!LO:TX:a:t=P:problem:mixed beam	!	!LO:TX:a:t=P:problem:mixed beam	!	!	!	!	!	!	!LO:LB:g=original	!	!	!	!	!	!	!
16D\LLyy	.	.	16dd\LL	.	16ff#\LL	.	16d\	fi-	16A/	-ri-	.	8f#\	-ri-	.	8dd\	-ri-	.	8dd\	8ff#\
16D\yy	.	.	16d/	.	16f#/	.	16D/	-li-	16A/	-tu-	.	.	.	.	.	.	.	.	.
16F#\yy	.	.	16f#/	.	16a/	.	8D/	-o,	8A/	-i	.	16f#\	-tu-	.	16dd\	-tu-	.	8r	8r
16A\JJyy	.	.	16a/JJ	.	16dd/JJ	.	.	.	.	.	.	16f#\	-i	.	16dd\	-i	.	.	.
!	!	!	!LO:LB:g=original	!	!	!	!	!	!	!	!	!	!	!	!	!	!	!	!
8d\Lyy	.	.	8dd`\L	.	8ff#`\L	.	2r	.	8A/	San-	.	8f#\	San-	.	8dd\	San-	.	8dd\L	8ff#\L
8d\Jyy	.	.	(32ff#\LL	.	(32aa\LL	.	.	.	8A/	-cto	.	16a\LL	-cto	.	16ff#\LL	-cto	.	16ff#\L	16aa\L
.	.	.	32gg\	.	32bb\	.	.	.	.	.	.	.	.	.	.	.	.	.	.
.	.	.	32ff#\	.	32aa\	.	.	.	.	.	.	16g\JJ	.	.	16ee\JJ	.	.	16ee\JJ	16gg\JJ
.	.	.	32ee\JJJ)	.	32gg\JJJ)	.	.	.	.	.	.	.	.	.	.	.	.	.	.
!	!	!	!	!	!	!	!	!	!	!	!	!	!	!	!LO:LB:g=original	!	!	!	!
16d\LLyy	.	.	16ee\LL	.	(16gg\LL	.	.	.	4r	.	.	16g\LL	San-	.	16ee\LL	San-	.	16ee\LL	16gg\LL
16D\yy	.	.	16dd\J	.	16ff#\J)	.	.	.	.	.	.	16f#\JJ	.	.	16dd\JJ	.	.	16dd\J	16ff#\J
16F#\yy	.	.	8dd\J	.	8ff#`\J	.	.	.	.	.	.	8f#\	-cto	.	8dd\	-cto	.	8dd\J	8ff#\J
16A\JJyy	.	.	.	.	.	.	.	.	.	.	.	.	.	.	.	.	.	.	.
!	!	!	!	!	!LO:LB:g=original	!	!LO:LB:g=original	!	!LO:LB:g=original	!	!	!	!	!	!	!	!	!	!
=42	=42	=42	=42	=42	=42	=42	=42	=42	=42	=42	=42	=42	=42	=42	=42	=42	=42	=42	=42
8D\L	.	.	8ff# 8a 8d/	.	(16ff#\LL	.	8d\	si-	8A/	si-	.	8f#\	si-	.	8dd\	si-	.	8r	8r
.	.	.	.	.	16ddd\JJ)	.	.	.	.	.	.	.	.	.	.	.	.	.	.
32d\LL	.	.	(32ff#\LLL	.	16aa'\LL	.	8d\	-cut	8A/	-cut	.	8f#\	-cut	.	8dd\	-cut	.	16dd\LL	16ff#\LL
32c#\	.	.	32ee\	.	.	.	.	.	.	.	.	.	.	.	.	.	.	.	.
32d\	.	.	32ff#\	.	16aa'\JJ	.	.	.	.	.	.	.	.	.	.	.	.	16dd\JJ	16ff#\JJ
32e\JJJ	.	.	32gg\JJJ)	.	.	.	.	.	.	.	.	.	.	.	.	.	.	.	.
16d\LL	.	.	16ff#\LL	.	4aa\	.	8d\	e-	8A/	e-	.	16f#\LL	e-	.	16dd\LL	e-	.	8dd\L	8ff#\L
16e\	.	.	16gg\	.	.	.	.	.	.	.	.	16g\JJ	.	.	16ee\JJ	.	.	.	.
16f#\	.	.	16aa\	.	.	.	8D/	-rat	8A/	-rat	.	16a\LL	-rat	.	16ff#\LL	-rat	.	8dd\J	8ff#\J
16d\JJ	.	.	16ff#\JJ	.	.	.	.	.	.	.	.	16f#\JJ	.	.	16dd\JJ	.	.	.	.
!	!	!	!	!	!	!	!	!	!	!	!	!	!	!	!	!	!	!LO:LB:g=original	!
16e\LL	.	.	16gg\LL	.	(16aa\LL	.	8A\	in	8A/	in	.	16g\LL	in	.	16ee\LL	in	.	8r	8r
16d\	.	.	16ff#\	.	16eee\JJ)	.	.	.	.	.	.	16f#\JJ	.	.	16dd\JJ	.	.	.	.
16c#\	.	.	16ee\	.	16aa'\LL	.	8A\	prin-	8A/	prin-	.	16e\LL	prin-	.	16cc#\LL	prin-	.	16ee\LL	16gg\LL
16B\JJ	.	.	16dd\JJ	.	16aa'\JJ	.	.	.	.	.	.	16d\JJ	.	.	16b\JJ	.	.	16ee\JJ	16gg\JJ
!	!	!	!	!	!	!	!	!	!	!	!	!LO:LB:g=original	!	!	!	!	!	!	!
16A\LL	.	.	16cc#\LL	.	4aa\	.	16A\	-ci-	16A/	-ci-	.	16c#/	-ci-	.	16a\	-ci-	.	8ee\L	8gg\L
16e\	.	.	16gg\	.	.	.	16A\	-pi-	16A/	-pi-	.	16c#/	-pi-	.	16a\	-pi-	.	.	.
16c#\	.	.	16ee\	.	.	.	8A\	-o	16A/	-o	.	8c#/	-o	.	8a\	-o	.	8ee\J	8gg\J
16A\JJ	.	.	16cc#\JJ	.	.	.	.	.	16r	.	.	.	.	.	.	.	.	.	.
!LO:LB:g=original	!	!	!	!	!	!	!	!	!	!	!	!	!	!	!LO:PB:g=original	!	!	!	!LO:LB:g=original
=43	=43	=43	=43	=43	=43	=43	=43	=43	=43	=43	=43	=43	=43	=43	=43	=43	=43	=43	=43
!	!	!	!LO:TX:a:t=P:problem:mixed beam	!	!	!	!	!	!	!	!	!	!	!	!	!	!	!	!
8d\	.	.	8ff#`\L	.	(32aa\LLL	.	8D/	si-	4A/	in	.	8f#\	si-	.	8dd\	Si-	.	8r	8r
.	.	.	.	.	32bb\	.	.	.	.	.	.	.	.	.	.	.	.	.	.
.	.	.	.	.	32ccc#\	.	.	.	.	.	.	.	.	.	.	.	.	.	.
.	.	.	.	.	32ddd\JJJ)	.	.	.	.	.	.	.	.	.	.	.	.	.	.
(32D/LLL	.	.	(32f#/LL	.	16aa\KL	.	8D/	-cut	.	.	.	8f#\	-cut	.	8dd\	-cut	.	16dd\LL	16ff#\LL
32C#/	.	.	32e/	.	.	.	.	.	.	.	.	.	.	.	.	.	.	.	.
32D/	.	.	32f#/	.	8aa\	.	.	.	.	.	.	.	.	.	.	.	.	16dd\JJ	16ff#\JJ
32E/JJJ)	.	.	32g/JJJ)	.	.	.	.	.	.	.	.	.	.	.	.	.	.	.	.
16D\LL	.	.	16f#/LL	.	.	.	8D/	e-	4A/	prin-	.	16f#\LL	e-	.	16dd\LL	e-	.	16dd\LL	16ff#\LL
16E\	.	.	16g/	.	8aa\	.	.	.	.	.	.	16g\JJ	.	.	16ee\JJ	.	.	16ff#\	16aa\
16F#\	.	.	16a/	.	.	.	8D/	-rat	.	.	.	16a\LL	-rat	.	16ff#\LL	-rat	.	16dd\	16ff#\
16D\JJ	.	.	16f#/JJ	.	16aa\Jk	.	.	.	.	.	.	16f#\JJ	.	.	16dd\JJ	.	.	16ff#\JJ	16aa\JJ
!	!	!	!LO:LB:g=original	!	!	!	!	!	!	!	!	!	!	!	!	!	!	!	!
*	*	*	*	*	*24\right	*	*	*	*	*	*	*	*	*	*	*	*	*	*
16E/LL	.	.	16g/LL	.	24aa\LL	.	8A\	in	8A/	-ci-	.	16g\LL	in	.	16ee\LL	in	.	8ee\L	8gg\L
.	.	.	.	.	24ccc#\	.	.	.	.	.	.	.	.	.	.	.	.	.	.
16D/	.	.	16f#/	.	.	.	.	.	.	.	.	16f#\JJ	.	.	16dd\JJ	.	.	.	.
.	.	.	.	.	24eee\JJ	.	.	.	.	.	.	.	.	.	.	.	.	.	.
16C#/	.	.	16e/	.	(16aa\KL	.	8A\	prin-	8A/	-pi-	.	16e\LL	prin-	.	16cc#\LL	prin-	.	16ee\L	16gg\L
16BB/JJ	.	.	16d/JJ	.	8aa\	.	.	.	.	.	.	16d\JJ	.	.	16b\JJ	.	.	16ee\JJ	16gg\JJ
16AA/LL	.	.	16c#/LL	.	.	.	16A\	-ci-	4A/	-o	.	16c#/	-ci-	.	16a\	-ci-	.	8ee\L	8gg\L
16E/	.	.	16g/	.	8aa\	.	16A\	-pi-	.	.	.	16c#/	-pi-	.	16a\	-pi-	.	.	.
16C#/	.	.	16e/	.	.	.	8A\	-o	.	.	.	8c#/	-o	.	8a\	-o	.	8ee\J	8gg\J
16AA/JJ	.	.	16c#/JJ	.	16aa\Jk)	.	.	.	.	.	.	.	.	.	.	.	.	.	.
!	!	!	!	!	!LO:LB:g=original	!	!LO:LB:g=original	!	!LO:LB:g=original	!	!	!	!	!	!	!	!	!	!
=44	=44	=44	=44	=44	=44	=44	=44	=44	=44	=44	=44	=44	=44	=44	=44	=44	=44	=44	=44
8D\L	.	.	(32ff#\LLL	.	(32aa\LLL	.	8d\	et	8A/	et	.	8a\	et	.	8ff#\	et	.	8ff#\	8aa\
.	.	.	32gg\	.	32bb\	.	.	.	.	.	.	.	.	.	.	.	.	.	.
.	.	.	32ff#\	.	32aa\	.	.	.	.	.	.	.	.	.	.	.	.	.	.
.	.	.	32ee\JJ)	.	32gg\JJ)	.	.	.	.	.	.	.	.	.	.	.	.	.	.
16r	.	.	8dd`\J	.	8ff#\J	.	16d\	nunc	16A/	nunc	.	16f#\	nunc	.	16dd\	nunc	.	8r	8r
16d\Jk	.	.	.	.	.	.	16d\	et	16A/	et	.	16f#\	et	.	16dd\	et	.	.	.
!LO:TX:a:t=P:problem:mixed beam	!	!	!	!	!	!	!	!	!	!	!	!LO:LB:g=original	!	!	!	!	!	!	!
8d\L	.	.	(32a/LLL	.	(32ff#\LLL	.	8d\	sem-	8A/	sem-	.	8f#\	sem-	.	8dd\	sem-	.	8dd\	8ff#\
.	.	.	32b/	.	32gg\	.	.	.	.	.	.	.	.	.	.	.	.	.	.
.	.	.	32a/	.	32ff#\	.	.	.	.	.	.	.	.	.	.	.	.	.	.
.	.	.	32g/JJ)	.	32ee\JJ	.	.	.	.	.	.	.	.	.	.	.	.	.	.
16r	.	.	8f#/J	.	8dd\J)	.	8D/	-per,	8A/	-per	.	8d\	-per	.	8dd\	-per	.	8r	8r
16D/Jk	.	.	.	.	.	.	.	.	.	.	.	.	.	.	.	.	.	.	.
*tremolo	*	*	*	*	*	*	*	*	*	*	*	*	*	*	*	*	*	*	*
!	!	!	!LO:TX:a:t=P:problem:mixed beam	!	!	!	!	!	!	!	!	!	!	!	!LO:LB:g=original	!	!	!	!
8D\L	.	.	8f#/L	.	16r	.	2r	.	2r	.	.	2r	.	.	2r	.	.	4f#/	4dd\
.	.	.	.	.	32dd\LLL	.	.	.	.	.	.	.	.	.	.	.	.	.	.
.	.	.	.	.	32ee\JJJ	.	.	.	.	.	.	.	.	.	.	.	.	.	.
8D\	.	.	16dd\L	.	16ff#\LL	.	.	.	.	.	.	.	.	.	.	.	.	.	.
.	.	.	16ee\JJ	.	16gg\JJ	.	.	.	.	.	.	.	.	.	.	.	.	.	.
8D\	.	.	16ff#\LL	.	16aa\LL	.	.	.	.	.	.	.	.	.	.	.	.	4r	4r
.	.	.	16dd\	.	16ff#\	.	.	.	.	.	.	.	.	.	.	.	.	.	.
8D\J	.	.	16gg\	.	16bb\	.	.	.	.	.	.	.	.	.	.	.	.	.	.
.	.	.	16ff#\JJ	.	16aa\JJ	.	.	.	.	.	.	.	.	.	.	.	.	.	.
=45	=45	=45	=45	=45	=45	=45	=45	=45	=45	=45	=45	=45	=45	=45	=45	=45	=45	=45	=45
!LO:TX:a:t=P:problem:mixed beam	!	!	!	!	!	!	!	!	!LO:TX:a:t=1	!	!	!	!	!	!	!	!	!	!
8AA/L	.	.	(32ee\LLL	.	(32gg\LLL	.	8A\	et	1r	.	.	8g\	et	.	8ee\	et	.	8ee\	8gg\
.	.	.	32ff#\	.	32aa\	.	.	.	.	.	.	.	.	.	.	.	.	.	.
.	.	.	32ee\	.	32gg\	.	.	.	.	.	.	.	.	.	.	.	.	.	.
.	.	.	32dd\JJ)	.	32ff#\JJ)	.	.	.	.	.	.	.	.	.	.	.	.	.	.
16r	.	.	8cc#`\J	.	8ee`\J	.	16A\	nunc	.	.	.	16e\	nunc	.	16cc#\	nunc	.	8r	8r
16A\Jk	.	.	.	.	.	.	16A\	et	.	.	.	16e\	et	.	16cc#\	et	.	.	.
!LO:TX:a:t=P:problem:mixed beam	!	!	!	!	!	!	!	!	!	!	!	!	!	!	!	!	!	!	!
8A\L	.	.	32cc#\LLL	.	(32ee\LLL	.	8A\	sem-	.	.	.	8e\	sem-	.	8cc#\	sem-	.	8a/	8ee\
.	.	.	32dd\	.	32ff#\	.	.	.	.	.	.	.	.	.	.	.	.	.	.
.	.	.	32cc#\	.	32ee\	.	.	.	.	.	.	.	.	.	.	.	.	.	.
.	.	.	32b\JJ	.	32dd\JJ)	.	.	.	.	.	.	.	.	.	.	.	.	.	.
16r	.	.	8a\J	.	8cc#`\J	.	8AA/	-per	.	.	.	8e\	-per	.	8cc#\	-per	.	8r	8r
16AA/Jk	.	.	.	.	.	.	.	.	.	.	.	.	.	.	.	.	.	.	.
8AA/L	.	.	8a\L	.	16r	.	2r	.	.	.	.	2r	.	.	2r	.	.	8r	8r
.	.	.	.	.	32cc#\LLL	.	.	.	.	.	.	.	.	.	.	.	.	.	.
.	.	.	.	.	32dd\JJJ	.	.	.	.	.	.	.	.	.	.	.	.	.	.
8AA/	.	.	16cc#\L	.	16ee\LL	.	.	.	.	.	.	.	.	.	.	.	.	16a/LL	16ee\LL
.	.	.	16dd\JJ	.	16ff#\JJ	.	.	.	.	.	.	.	.	.	.	.	.	16a/JJ	16ee\JJ
8AA/	.	.	16ee\LL	.	(16gg\LL	.	.	.	.	.	.	.	.	.	.	.	.	8a/L	8ee\L
.	.	.	16cc#\	.	16ee\	.	.	.	.	.	.	.	.	.	.	.	.	.	.
8AA/J	.	.	16ff#\	.	16aa\	.	.	.	.	.	.	.	.	.	.	.	.	8a/J	8ee\J
*Xtremolo	*	*	*	*	*	*	*	*	*	*	*	*	*	*	*	*	*	*	*
!LO:TX:b:i:t=Volti subito.	!	!	!	!	!	!	!	!	!	!	!	!	!	!	!	!	!	!	!
.	.	.	16ee\JJ	.	16gg\JJ)	.	.	.	.	.	.	.	.	.	.	.	.	.	.
!LO:PB:g=original	!	!	!LO:LB:g=original	!	!LO:LB:g=original	!	!	!	!	!	!	!	!	!	!	!	!	!	!LO:LB:g=original
=46	=46	=46	=46	=46	=46	=46	=46	=46	=46	=46	=46	=46	=46	=46	=46	=46	=46	=46	=46
8d\L	.	.	16aKL 16A/	.	8ff#\L	.	8d\	et	8d\	et	.	8a\	et	.	8ff#\	et	.	8dd\L	8ff#\L
.	.	.	8a 8A/	.	.	.	.	.	.	.	.	.	.	.	.	.	.	.	.
*	*	*	*	*	*Xtuplet	*	*	*	*	*	*	*	*	*	*	*	*	*	*
8A\	.	.	.	.	24a\L	.	8A\	in	8d\	in	.	8a\	in	.	8ff#\	in	.	16dd\L	16ff#\L
.	.	.	.	.	24dd\	.	.	.	.	.	.	.	.	.	.	.	.	.	.
.	.	.	8a 8A/	.	.	.	.	.	.	.	.	.	.	.	.	.	.	16dd\JJ	16ff#\JJ
.	.	.	.	.	24ff#\JJ	.	.	.	.	.	.	.	.	.	.	.	.	.	.
!	!	!	!	!	!	!	!LO:LB:g=original	!	!	!	!	!	!	!	!	!	!	!	!
8e\	4 3	.	.	.	8gg\L	.	16e\	sae-	16e\	Sae-	.	16a\	sae-	.	16gg\	Sae-	.	4ee\	4gg\
.	.	.	8a 8A/	.	.	.	16A\	-cu-	16e\	-cu-	.	16a\	-cu-	.	16gg\	-cu-	.	.	.
*	*	*	*	*	*tuplet	*	*	*	*	*	*	*	*	*	*	*	*	*	*
!	!	!	!	!	!LO:TUP:a:problem:klamra łukowa	!	!	!	!	!	!	!	!	!	!	!	!	!	!
8A\J	.	.	.	.	24ee\L	.	8A\	-la	8e\	-la	.	8a\	-la	.	8gg\	-la	.	.	.
.	.	.	.	.	24ff#\	.	.	.	.	.	.	.	.	.	.	.	.	.	.
.	.	.	16aJk 16A/	.	.	.	.	.	.	.	.	.	.	.	.	.	.	.	.
.	.	.	.	.	24gg\JJ	.	.	.	.	.	.	.	.	.	.	.	.	.	.
*	*	*	*tremolo	*	*	*	*	*	*	*	*	*	*	*	*	*	*	*	*
!	!	!	!	!	!	!	!	!	!	!	!	!	!	!	!LO:LB:g=original	!	!	!	!
8d\L	.	.	16a/LL	.	8ff#\L	.	8d\	sae-	8d\	Sae-	.	8a\	Sae-	.	8ff#\	Sae-	.	8dd\L	8ff#\L
.	.	.	16a/	.	.	.	.	.	.	.	.	.	.	.	.	.	.	.	.
*	*	*	*	*	*Xtuplet	*	*	*	*	*	*	*	*	*	*	*	*	*	*
8A\	.	.	16a/	.	24ddd\L	.	8A\	-cu-	8d\	-cu-	.	8a\	-cu-	.	8ff#\	-cu-	.	16ff#\L	16aa\L
.	.	.	.	.	24aa\	.	.	.	.	.	.	.	.	.	.	.	.	.	.
.	.	.	16a/	.	.	.	.	.	.	.	.	.	.	.	.	.	.	16dd\JJ	16ff#\JJ
.	.	.	.	.	24ff#\JJ	.	.	.	.	.	.	.	.	.	.	.	.	.	.
!	!	!	!	!	!	!	!	!	!	!	!	!LO:LB:g=original	!	!	!	!	!	!	!
8e\	4 3	.	16a/	.	8gg\L	.	8e\	-lo-	8e\	-lo-	.	8a\	-lo-	.	8gg\	-lo-	.	4ee\	4gg\
.	.	.	16a/	.	.	.	.	.	.	.	.	.	.	.	.	.	.	.	.
*	*	*	*	*	*tuplet	*	*	*	*	*	*	*	*	*	*	*	*	*	*
!	!	!	!	!	!LO:TUP:a:problem:klamra łukowa	!	!	!	!	!	!	!	!	!	!	!	!	!	!
8A\J	.	.	16a/	.	24ee\L	.	8A\	-rum	8e\	-rum	.	8a\	-rum	.	8gg\	-rum	.	.	.
.	.	.	.	.	24gg\	.	.	.	.	.	.	.	.	.	.	.	.	.	.
.	.	.	16a/JJ	.	.	.	.	.	.	.	.	.	.	.	.	.	.	.	.
!	!	!	!LO:TX:a:t=vi	!	!	!	!	!	!	!	!	!	!	!	!	!	!	!	!
.	.	.	.	.	24aa\JJ	.	.	.	.	.	.	.	.	.	.	.	.	.	.
!	!	!	!	!	!	!	!	!	!LO:LB:g=original	!	!	!	!	!	!	!	!	!LO:LB:g=original	!
=47	=47	=47	=47	=47	=47	=47	=47	=47	=47	=47	=47	=47	=47	=47	=47	=47	=47	=47	=47
!	!	!	!LO:TX:a:t=de	!	!	!	!LO:TX:a:t=2	!	!LO:TX:a:t=2	!	!	!LO:TX:a:t=2	!	!	!LO:TX:a:t=2	!	!	!	!
8D\L	.	.	16dd\KL	.	(16ff#\LL	.	0r	.	0r	.	.	0r	.	.	0r	.	.	4dd\	4ff#\
.	.	.	8dd\	.	16gg\	.	.	.	.	.	.	.	.	.	.	.	.	.	.
8E\	.	.	.	.	16aa\	.	.	.	.	.	.	.	.	.	.	.	.	.	.
.	.	.	16dd\Jk	.	16bb\JJ)	.	.	.	.	.	.	.	.	.	.	.	.	.	.
8F#\	.	.	16ff#KL 16a\	.	(16ccc#\LL	.	.	.	.	.	.	.	.	.	.	.	.	4r	4r
.	.	.	8ff# 8a\	.	16ddd\)	.	.	.	.	.	.	.	.	.	.	.	.	.	.
8D\J	.	.	.	.	(16ccc#\	.	.	.	.	.	.	.	.	.	.	.	.	.	.
.	.	.	16ff#Jk 16a\	.	16ddd\JJ)	.	.	.	.	.	.	.	.	.	.	.	.	.	.
16G\LL	.	.	(16dd\LL	.	(16aa#X\LL	.	.	.	.	.	.	.	.	.	.	.	.	2r	2r
16F#\	.	.	16gg\JJ)	.	16bb'\JJ)	.	.	.	.	.	.	.	.	.	.	.	.	.	.
!	!	!	!	!	!LO:N:vis=4.	!	!	!	!	!	!	!	!	!	!	!	!	!	!
16E\	.	.	4gg\	.	4bb\	.	.	.	.	.	.	.	.	.	.	.	.	.	.
16D\JJ	.	.	.	.	.	.	.	.	.	.	.	.	.	.	.	.	.	.	.
8C#/L	7	.	.	.	.	.	.	.	.	.	.	.	.	.	.	.	.	.	.
8C#/J	6	.	16ff#\LL	.	(16aan\LL	.	.	.	.	.	.	.	.	.	.	.	.	.	.
.	5	.	16ee\JJ	.	16gg\JJ)	.	.	.	.	.	.	.	.	.	.	.	.	.	.
=48	=48	=48	=48	=48	=48	=48	=48	=48	=48	=48	=48	=48	=48	=48	=48	=48	=48	=48	=48
!LO:TX:a:t=P:problem:mixed beam	!	!	!	!	!	!	!	!	!	!	!	!	!	!	!	!	!	!	!
8D\L	.	.	8dd\L	.	24ff#\LL	.	.	.	.	.	.	.	.	.	.	.	.	4r	4r
.	.	.	.	.	24gg\	.	.	.	.	.	.	.	.	.	.	.	.	.	.
.	.	.	.	.	24aa\JJ	.	.	.	.	.	.	.	.	.	.	.	.	.	.
8G\	6	.	24b\L	.	24bb\LL	.	.	.	.	.	.	.	.	.	.	.	.	.	.
.	.	.	24cc#\	.	24ccc#\	.	.	.	.	.	.	.	.	.	.	.	.	.	.
.	.	.	24dd\JJ	.	24ddd\JJ	.	.	.	.	.	.	.	.	.	.	.	.	.	.
!	!	!	!	!	!LO:LB:g=original	!	!	!	!	!	!	!	!	!	!	!	!	!LO:TX:a:t=P:problem:mixed beam	!
8A\	6 4	.	(8dd\L	.	(8ff#\L	.	.	.	.	.	.	.	.	.	.	.	.	8dd\L	8ff#\L
8AA/J	5 3	.	8cc#\J)	.	8ee\J)	.	.	.	.	.	.	.	.	.	.	.	.	8a/J	8ee\J
!	!	!	!LO:TX:a:t=P:problem:mixed beam	!	!	!	!	!	!	!	!	!	!	!	!	!	!	!	!
4D/	.	.	16dd\LL	.	16dd\LL	.	.	.	.	.	.	.	.	.	.	.	.	4f#/	4dd\
.	.	.	16f#/	.	16a\	.	.	.	.	.	.	.	.	.	.	.	.	.	.
.	.	.	16g/	.	16b\	.	.	.	.	.	.	.	.	.	.	.	.	.	.
.	.	.	16a/JJ	.	16cc#\JJ	.	.	.	.	.	.	.	.	.	.	.	.	.	.
4r	.	.	16b\LL	.	16dd\LL	.	.	.	.	.	.	.	.	.	.	.	.	4r	4r
.	.	.	16cc#\	.	16ee\	.	.	.	.	.	.	.	.	.	.	.	.	.	.
.	.	.	16dd\	.	16ff#\	.	.	.	.	.	.	.	.	.	.	.	.	.	.
.	.	.	16ee\JJ	.	16gg\JJ	.	.	.	.	.	.	.	.	.	.	.	.	.	.
=49!|:	=49!|:	=49!|:	=49!|:	=49!|:	=49!|:	=49!|:	=49!|:	=49!|:	=49!|:	=49!|:	=49!|:	=49!|:	=49!|:	=49!|:	=49!|:	=49!|:	=49!|:	=49!|:	=49!|:
*>D	*	*	*>D	*	*>D	*	*>D	*	*>D	*	*	*>D	*	*	*>D	*	*	*>D	*>D
!	!	!	!	!	!	!	!	!	!	!	!	!	!	!	!	!	!	!LO:TX:a:t=P:problem:mixed beam	!
8D/L	.	.	16a/LL	.	8ff#L 8dd`\	.	8D/	sae-	8A/	Sae-	.	8f#\	Sae-	.	8dd\	Sae-	.	8dd\L	8ff#\L
.	.	.	16a/	.	.	.	.	.	.	.	.	.	.	.	.	.	.	.	.
!	!	!	!	!	!LO:TUP:a:problem:klamra łukowa	!	!	!	!	!	!	!	!	!	!	!	!	!	!
8AA/J	.	.	16a/	.	24a\L	.	8D/	-cu-	8A/	-cu-	.	8f#\	-cu-	.	8dd\	-cu-	.	16a/L	16ff#\L
.	.	.	.	.	24dd\	.	.	.	.	.	.	.	.	.	.	.	.	.	.
.	.	.	16a/	.	.	.	.	.	.	.	.	.	.	.	.	.	.	16dd/JJ	16ff#\JJ
.	.	.	.	.	24ff#\JJ	.	.	.	.	.	.	.	.	.	.	.	.	.	.
8E/L	4 3	.	16a/	.	8gg`\L	.	8E\	-lo-	8A/	-lo-	.	8g\	-lo-	.	8ee\	-lo-	.	4ee\	4gg\
.	.	.	16a/	.	.	.	.	.	.	.	.	.	.	.	.	.	.	.	.
!	!	!	!	!	!LO:TUP:a:problem:klamra łukowa	!	!	!	!	!	!	!	!	!	!	!	!	!	!
8AA/J	.	.	16a/	.	24ee\L	.	8AA/	-rum	8A/	-rum	.	8g\	-rum	.	8ee\	-rum	.	.	.
.	.	.	.	.	24ff#\	.	.	.	.	.	.	.	.	.	.	.	.	.	.
.	.	.	16a/JJ	.	.	.	.	.	.	.	.	.	.	.	.	.	.	.	.
.	.	.	.	.	24gg\JJ	.	.	.	.	.	.	.	.	.	.	.	.	.	.
8d\L	.	.	16a/LL	.	8ff#`\L	.	8d\	sae-	8A/	Sae-	.	8f#\	Sae-	.	8dd\	A-	.	8dd\L	8ff#\L
.	.	.	16a/	.	.	.	.	.	.	.	.	.	.	.	.	.	.	.	.
*	*	*	*	*	*Xtuplet	*	*	*	*	*	*	*	*	*	*	*	*	*	*
8A\J	.	.	16a/	.	24ddd\L	.	8d\	-cu-	8A/	-cu-	.	8f#\	-cu-	.	8dd\	-men	.	16ff#\L	16aa\L
.	.	.	.	.	24aa\	.	.	.	.	.	.	.	.	.	.	.	.	.	.
.	.	.	16a/	.	.	.	.	.	.	.	.	.	.	.	.	.	.	16dd\JJ	16ff#\JJ
.	.	.	.	.	24ff#\JJ	.	.	.	.	.	.	.	.	.	.	.	.	.	.
8e\L	4 3	.	16a/	.	8gg`\L	.	8e\	-lo-	8A/	-lo-	.	8g\	-lo-	.	8ee\	a-	.	4ee\	4gg\
.	.	.	16a/	.	.	.	.	.	.	.	.	.	.	.	.	.	.	.	.
*	*	*	*	*	*tuplet	*	*	*	*	*	*	*	*	*	*	*	*	*	*
8A\J	.	.	16a/	.	24ee\L	.	8A\	-rum	8A/	-rum.	.	8g\	-rum	.	8ee\	-men	.	.	.
.	.	.	.	.	24ff#\	.	.	.	.	.	.	.	.	.	.	.	.	.	.
.	.	.	16a/JJ	.	.	.	.	.	.	.	.	.	.	.	.	.	.	.	.
*	*	*	*Xtremolo	*	*	*	*	*	*	*	*	*	*	*	*	*	*	*	*
!	!	!	!LO:TX:b:t=Re+	!	!	!	!	!	!	!	!	!	!	!	!	!	!	!	!
.	.	.	.	.	24gg\JJ	.	.	.	.	.	.	.	.	.	.	.	.	.	.
!LO:LB:g=original	!	!	!	!	!	!	!LO:LB:g=original	!	!	!	!	!	!	!	!LO:LB:g=original	!	!	!	!LO:LB:g=original
=50	=50	=50	=50	=50	=50	=50	=50	=50	=50	=50	=50	=50	=50	=50	=50	=50	=50	=50	=50
!	!	!	!LO:TX:b:t=+tro	!	!	!	!	!	!	!	!	!	!	!	!	!	!	!	!
8d\L	.	.	(16d/LL	.	16ff#\LL	.	8D/	a-	8A/	A-	.	8f#\	A-	.	8dd\	a-	.	8dd\L	8ff#\L
.	.	.	16a/)	.	16ddd\JJ	.	.	.	.	.	.	.	.	.	.	.	.	.	.
8A\J	.	.	(16d/	.	(32ddd\LLL	.	8F#\	-men	8A/	-men	.	8f#\	-men	.	8dd\	-men	.	16dd\L	16ff#\L
.	.	.	.	.	32ccc#\	.	.	.	.	.	.	.	.	.	.	.	.	.	.
.	.	.	16a/JJ)	.	32bb\	.	.	.	.	.	.	.	.	.	.	.	.	16ff#\JJ	16aa\JJ
.	.	.	.	.	32aa\JJJ)	.	.	.	.	.	.	.	.	.	.	.	.	.	.
!	!	!	!	!	!	!	!	!	!	!	!	!	!	!	!	!	!	!LO:TX:a:t=P:problem:mixed beam	!
.	.	.	.	.	16qqaa/	.	.	.	.	.	.	.	.	.	.	.	.	.	.
8e\L	4 3	.	(16e/LL	.	8gg\L	.	8E/	a-	8A/	a-	.	8g\	a-	.	8ee\	A-	.	8ee\L	4gg\
.	.	.	16a/)	.	.	.	.	.	.	.	.	.	.	.	.	.	.	.	.
!	!	!	!	!	!LO:TUP:a:problem:klamra łukowa	!	!	!	!	!	!	!	!	!	!	!	!	!	!
8A\J	.	.	(16e/	.	24ee\L	.	8AA/	-men	8A/	-men	.	8g\	-men	.	8ee\	-men	.	8a/J	.
.	.	.	.	.	24ff#\	.	.	.	.	.	.	.	.	.	.	.	.	.	.
.	.	.	16a/JJ)	.	.	.	.	.	.	.	.	.	.	.	.	.	.	.	.
.	.	.	.	.	24gg\JJ	.	.	.	.	.	.	.	.	.	.	.	.	.	.
!	!	!	!	!	!LO:LB:g=original	!	!	!	!	!	!	!	!	!	!	!	!	!	!
8D\L	.	.	8f#/L	.	(16ff#\LL	.	2r	.	2r	.	.	2r	.	.	2r	.	.	4dd\	4ff#\
.	.	.	.	.	16gg\	.	.	.	.	.	.	.	.	.	.	.	.	.	.
8E\	.	.	8g/	.	16aa\	.	.	.	.	.	.	.	.	.	.	.	.	.	.
.	.	.	.	.	16bb\JJ)	.	.	.	.	.	.	.	.	.	.	.	.	.	.
8F#\	.	.	8a/	.	(16ccc#\LL	.	.	.	.	.	.	.	.	.	.	.	.	4r	4r
.	.	.	.	.	16ddd\	.	.	.	.	.	.	.	.	.	.	.	.	.	.
8D\J	.	.	8f#/J	.	16aa\	.	.	.	.	.	.	.	.	.	.	.	.	.	.
.	.	.	.	.	16ff#\JJ)	.	.	.	.	.	.	.	.	.	.	.	.	.	.
!	!	!	!	!	!	!	!	!	!LO:LB:g=original	!	!	!LO:LB:g=original	!	!	!	!	!	!	!
=51	=51	=51	=51	=51	=51	=51	=51	=51	=51	=51	=51	=51	=51	=51	=51	=51	=51	=51	=51
*	*	*	*	*	*	*	*	*	*^	*	*	*^	*	*	*^	*	*	*	*
!	!	!	!LO:TX:a:t=P:problem:mixed beam	!	!	!	!	!	!LO:N:vis=4.	!	!	!	!	!	!	!	!	!	!	!	!	!
16G\LL	.	.	8g/L	.	4bb\	.	(16G\LL	a-	(4d\	4ryy	A-	.	(4b\	4ryy	A-	.	(4gg\	4ryy	A-	.	2r	2r
16F#\	.	.	.	.	.	.	16F#\	.	.	.	.	.	.	.	.	.	.	.	.	.	.	.
16E\	.	.	8gg\J	.	.	.	16E\	.	.	.	.	.	.	.	.	.	.	.	.	.	.	.
16D\JJ	.	.	.	.	.	.	16D\JJ)	.	.	.	.	.	.	.	.	.	.	.	.	.	.	.
8C#/L	7	.	(16gg\LL	.	16bb\LL	.	8C#/	.	8e\)	4ryy	.	.	8a\)	4ryy	.	.	8ff#\)	4ryy	.	.	.	.
.	.	.	16ff#\	.	16aa\	.	.	.	.	.	.	.	.	.	.	.	.	.	.	.	.	.
8C#/J	6	.	16ff#\	.	16aa\	.	8C#/	-men	8e\	.	-men	.	8g\	.	-men	.	8ee\	.	-men	.	.	.
.	5	.	16ee\JJ)	.	16gg\JJ	.	.	.	.	.	.	.	.	.	.	.	.	.	.	.	.	.
!	!	!	!	!	!	!	!LO:TX:a:t=P:problem:mixed beam	!	!	!	!	!	!	!	!	!	!	!	!	!	!LO:TX:a:t=P:problem:mixed beam	!
8D\L	.	.	8aL 8d/	.	16gg\LL	.	8D\L	-a	8f#\	4ryy	a-	.	8a\	4ryy	a-	.	8dd\	4ryy	a-	.	8.dd\L	8.ff#\L
.	.	.	.	.	16ff#\JJ	.	.	.	.	.	.	.	.	.	.	.	.	.	.	.	.	.
8G\J	.	.	8bJ 8d/	.	(32aa\LLL	.	8F#\	.	8g\	.	-men	.	8b\	.	-men	.	8ee\	.	-men	.	.	.
.	.	.	.	.	32gg\	.	.	.	.	.	.	.	.	.	.	.	.	.	.	.	.	.
.	.	.	.	.	32ff#\	.	.	.	.	.	.	.	.	.	.	.	.	.	.	.	16a/Jk	16ee\Jk
.	.	.	.	.	32ee\JJJ)	.	.	.	.	.	.	.	.	.	.	.	.	.	.	.	.	.
!LO:TX:a:t=P:problem:mixed beam	!	!	!	!	!	!	!	!	!	!	!	!	!	!	!	!	!	!	!	!	!	!
8A\L	.	.	(16f#/LL	.	(8dd\L	.	8A\	.	8f#/	(>8f#\L	1. a-	2. A	8a/	4a\	1. a-	2. a	8dd/	(>8dd\L	1. a-	2. a	8f#/L	8dd\L
.	.	.	16a/	.	.	.	.	.	.	.	.	.	.	.	.	.	.	.	.	.	.	.
8AA/J	.	.	16g/	.	8cc#\J)	.	8AA/J	.	8e/	8e\J)	-men	.	8a/	.	-men	.	8cc#/	8cc#\J)	-men	.	8a/J	8ee\J
.	.	.	16a/JJ)	.	.	.	.	.	.	.	.	.	.	.	.	.	.	.	.	.	.	.
*	*	*	*	*	*	*	*	*	*v	*v	*	*	*	*	*	*	*v	*v	*	*	*	*
*	*	*	*	*	*	*	*	*	*	*	*	*v	*v	*	*	*	*	*	*	*
=52:|!	=52:|!	=52:|!	=52:|!	=52:|!	=52:|!	=52:|!	=52:|!	=52:|!	=52:|!	=52:|!	=52:|!	=52:|!	=52:|!	=52:|!	=52:|!	=52:|!	=52:|!	=52:|!	=52:|!
*>E	*	*	*>E	*	*>E	*	*>E	*	*>E	*	*	*>E	*	*	*>E	*	*	*>E	*>E
8D/L	.	.	16f#/LL	.	8dd`\L	.	8D\	-men.	8f#\	-men	.	8a\	-men	.	8dd\	-men	.	8f#/	8dd\
.	.	.	(16a/	.	.	.	.	.	.	.	.	.	.	.	.	.	.	.	.
16r	.	.	16f#/	.	24aa\L	.	8r	.	8r	.	.	8r	.	.	8r	.	.	8r	8r
.	.	.	.	.	24ff#\	.	.	.	.	.	.	.	.	.	.	.	.	.	.
16D/Jk	.	.	16a/JJ	.	.	.	.	.	.	.	.	.	.	.	.	.	.	.	.
.	.	.	.	.	24dd\JJ	.	.	.	.	.	.	.	.	.	.	.	.	.	.
!	!	!	!	!	!	!	!	!	!	!	!	!	!	!	!LO:LB:g=original	!	!	!	!
8A\L	.	.	16g/LL)	.	8ee`\L	.	8A\	a-	4g\	.	.	4a\	a-	.	4ee\	a-	.	8a/	8ee\
.	.	.	(16a/	.	.	.	.	.	.	.	.	.	.	.	.	.	.	.	.
16r	.	.	16g/	.	24gg\L	.	8r	.	.	.	.	.	.	.	.	.	.	8r	8r
.	.	.	.	.	24ee\	.	.	.	.	.	.	.	.	.	.	.	.	.	.
16A\Jk	.	.	16a/JJ)	.	.	.	.	.	.	.	.	.	.	.	.	.	.	.	.
.	.	.	.	.	24cc#\JJ	.	.	.	.	.	.	.	.	.	.	.	.	.	.
!	!	!	!LO:LB:g=original	!	!LO:LB:g=original	!	!	!	!	!	!	!	!	!	!	!	!	!LO:LB:g=original	!
!LO:TX:a:t=P:problem:mixed beam	!	!	!	!	!	!	!	!	!	!	!	!	!	!	!	!	!	!LO:TX:a:t=P:problem:mixed beam	!
8d\L	.	.	16f#/LL	.	8dd`\L	.	8d\	-men	8f#\	.	.	8a\	-men	.	8dd\	-men	.	8f#/L	8dd\L
.	.	.	(16a/	.	.	.	.	.	.	.	.	.	.	.	.	.	.	.	.
16r	.	.	16f#/	.	(32aa\LL	.	8r	.	8r	.	.	8r	.	.	8r	.	.	16r	16r
.	.	.	.	.	32ff#\	.	.	.	.	.	.	.	.	.	.	.	.	.	.
16D/Jk	.	.	16a/JJ)	.	32ee\	.	.	.	.	.	.	.	.	.	.	.	.	16dd\Jk	16ff#\Jk
.	.	.	.	.	32dd\JJJ)	.	.	.	.	.	.	.	.	.	.	.	.	.	.
!	!	!	!	!	!	!	!LO:LB:g=original	!	!	!	!	!	!	!	!	!	!	!	!
8A\L	.	.	16g/LL	.	8ee`\L	.	8A\	A-	4e\	.	.	4a\	A-	.	8ee\L	A-	.	8a/L	8ee\L
.	.	.	16a/	.	.	.	.	.	.	.	.	.	.	.	.	.	.	.	.
16r	.	.	16g/	.	(32gg\LL	.	8r	.	.	.	.	.	.	.	16gg\L	.	.	16r	16r
.	.	.	.	.	32ee\	.	.	.	.	.	.	.	.	.	.	.	.	.	.
16A\Jk	.	.	16a/JJ	.	32dd\	.	.	.	.	.	.	.	.	.	16ee\JJ	.	.	16a/Jk	16ee\Jk
.	.	.	.	.	32cc#\JJJ)	.	.	.	.	.	.	.	.	.	.	.	.	.	.
!LO:LB:g=original	!	!	!	!	!	!	!	!	!	!	!	!	!	!	!	!	!	!	!
=53	=53	=53	=53	=53	=53	=53	=53	=53	=53	=53	=53	=53	=53	=53	=53	=53	=53	=53	=53
!	!	!	!LO:TX:a:t=P:problem:mixed beam	!	!	!	!	!	!	!	!	!	!	!	!	!	!	!	!
16D\LL	.	.	8f#/L	.	8dd\L	.	8D\	-men	4d\	.	.	8a\	-men	.	4dd\	-men	.	4f#/	4dd\
16d\	.	.	.	.	.	.	.	.	.	.	.	.	.	.	.	.	.	.	.
16c#\	.	.	8ff# 8a\	.	8ddd\	.	8d\	A-	.	.	.	(8a\	A-	.	.	.	.	.	.
16d\JJ	.	.	.	.	.	.	.	.	.	.	.	.	.	.	.	.	.	.	.
16A\LL	.	.	8ff# 8a\	.	8ddd\	.	(8A\	-a	4d\	.	.	4a\)	.	.	4ff#\	A-	.	8f#/L	8dd\L
16d\	.	.	.	.	.	.	.	.	.	.	.	.	.	.	.	.	.	.	.
16F#\	.	.	8ff#J 8a\	.	8ddd\J	.	8F#\)	.	.	.	.	.	.	.	.	.	.	16f#/L	8dd\J
16A\JJ	.	.	.	.	.	.	.	.	.	.	.	.	.	.	.	.	.	16a/JJ	.
*	*	*	*2\right	*	*2\right	*	*	*	*2\right	*	*	*2\right	*	*	*	*	*	*	*2\right
!	!	!	!	!	!	!	!LO:TX:b:i:t=Scripsit Thomas Gotshalk.\nAnno 1800. die 28 May	!	!	!	!	!LO:LB:g=original	!	!	!	!	!	!	!
!LO:TX:b:i:t=Finis.	!	!	!	!	!	!	!LO:N:vis=2.	!	!LO:TX:b:i:t=Finis coronat\n opus	!	!	!	!	!	!	!	!	!LO:TX:b:i:t=finis	!
2D/	.	.	2ff# 2a 2d\	.	2ddd 2ff#\	.	2D/	-men	2d\	.	.	2a\	-men.	.	2ff#\	-men.	.	2f#/	2dd\
==	==	==	==	==	==	==	==	==	==	==	==	==	==	==	==	==	==	==	==
*-	*-	*-	*-	*-	*-	*-	*-	*-	*-	*-	*-	*-	*-	*-	*-	*-	*-	*-	*-
!!!system-decoration: [g1][g2][g3]s9
!!!RDF**kern: > = above
!!!RDF**kern: < = below
!!!ENC: Marta Lawrence
!!!END: 2020-07-07
!!!ENC: Krzysztof Stępień
!!!END: 2020-02-22
